; generated by PrusaSlicer 2.2.0+win64 on 2020-09-15 at 12:01:55 UTC

; 

; external perimeters extrusion width = 0.60mm
; perimeters extrusion width = 0.50mm
; infill extrusion width = 0.50mm
; solid infill extrusion width = 0.50mm
; top infill extrusion width = 0.45mm
; first layer extrusion width = 0.42mm

M73 P0 R78
M73 Q0 S78
M201 X1000 Y1000 Z200 E5000 ; sets maximum accelerations, mm/sec^2
M203 X200 Y200 Z12 E120 ; sets maximum feedrates, mm/sec
M204 P1250 R1250 T1250 ; sets acceleration (P, T) and retract acceleration (R), mm/sec^2
M205 X8.00 Y8.00 Z0.40 E4.50 ; sets the jerk limits, mm/sec
M205 S0 T0 ; sets the minimum extruding and travel feed rate, mm/sec
M107
M862.3 P "MK3" ; printer model check
M862.1 P0.4 ; nozzle diameter check
M115 U3.9.0 ; tell printer latest fw version
G90 ; use absolute coordinates
M83 ; extruder relative mode
M104 S215 ; set extruder temp
M140 S60 ; set bed temp
M190 S60 ; wait for bed temp
M109 S215 ; wait for extruder temp
G28 W ; home all without mesh bed level
G80 ; mesh bed leveling
G1 Y-3.0 F1000.0 ; go outside print area
G92 E0.0
G1 X60.0 E9.0 F1000.0 ; intro line
M73 Q0 S78
M73 P0 R78
G1 X100.0 E12.5 F1000.0 ; intro line
G92 E0.0
M221 S95

; Don't change E values below. Excessive value can damage the printer.

M907 E538 ; set extruder motor current
G21 ; set units to millimeters
G90 ; use absolute coordinates
M83 ; use relative distances for extrusion
M900 K0.06 ; Filament gcode LA 1.5
M900 K30 ; Filament gcode LA 1.0
;BEFORE_LAYER_CHANGE
G92 E0.0
;0.2


G1 E-0.80000 F2100.00000
G1 Z0.600 F10800.000
;AFTER_LAYER_CHANGE
;0.2
G1 X106.342 Y63.547
G1 Z0.200
G1 E0.80000 F2100.00000
M204 S1000
G1 F1200.000
G1 X106.706 Y63.108 E0.01787
G1 X107.167 Y62.767 E0.01799
G1 X107.697 Y62.546 E0.01799
G1 X108.264 Y62.458 E0.01799
G1 X140.344 Y62.457 E1.00585
G1 X141.197 Y62.617 E0.02720
G1 X141.935 Y63.072 E0.02720
G1 X142.461 Y63.761 E0.02720
G1 X142.705 Y64.594 E0.02720
G1 X146.513 Y111.785 E1.48446
G1 X146.514 Y118.056 E0.19663
G1 X146.402 Y118.665 E0.01941
G1 X146.137 Y119.224 E0.01941
G1 X145.764 Y119.670 E0.01823
G1 X145.294 Y120.012 E0.01823
G1 X144.755 Y120.230 E0.01823
G1 X144.179 Y120.311 E0.01823
G1 X104.517 Y120.311 E1.24357
G1 X103.857 Y120.211 E0.02095
G1 X103.250 Y119.931 E0.02095
G1 X102.815 Y119.569 E0.01775
G1 X102.479 Y119.118 E0.01763
G1 X102.258 Y118.600 E0.01763
G1 X102.166 Y118.042 E0.01775
G1 X101.792 Y88.096 E0.93900
G1 X106.003 Y64.402 E0.75457
G1 X106.320 Y63.602 E0.02696
G1 F8640.000
G1 X106.706 Y63.108 E-0.14485
G1 X107.167 Y62.767 E-0.13248
G1 X107.697 Y62.546 E-0.13248
G1 X108.264 Y62.458 E-0.13248
G1 X109.207 Y62.458 E-0.21771
G1 E-0.04000 F2100.00000
G1 Z0.800 F10800.000
G1 X103.046 Y79.961
G1 Z0.200
G1 E0.80000 F2100.00000
G1 F1200.000
G1 X102.884 Y79.793 E0.00733
G1 X102.407 Y78.978 E0.02959
G1 X102.115 Y78.105 E0.02887
G1 X102.038 Y73.242 E0.15252
G1 X102.330 Y72.085 E0.03741
G1 X102.785 Y71.212 E0.03085
G1 X103.629 Y70.304 E0.03887
G1 X103.642 Y64.207 E0.19116
G1 X103.933 Y63.078 E0.03657
G1 X104.336 Y62.283 E0.02794
G1 X105.232 Y61.273 E0.04233
G1 X105.870 Y60.770 E0.02549
G1 X107.794 Y60.121 E0.06364
G1 X140.827 Y60.124 E1.03573
G1 X141.775 Y60.308 E0.03029
G1 X142.683 Y60.699 E0.03101
G1 X143.901 Y61.721 E0.04984
G1 X144.663 Y62.872 E0.04328
G1 X145.040 Y64.215 E0.04375
G1 X145.054 Y82.343 E0.56838
G1 X144.755 Y83.568 E0.03955
G1 X144.470 Y84.125 E0.01961
G1 X144.132 Y84.629 F10800.000
G1 F1200.000
G1 X143.271 Y85.574 E0.04011
G1 X143.781 Y86.482 E0.03265
G1 X144.064 Y87.640 E0.03736
G1 X144.079 Y90.334 E0.08448
G1 X143.742 Y91.659 E0.04287
G1 X143.255 Y92.539 E0.03153
G1 X142.479 Y93.357 E0.03536
G1 X142.479 Y105.736 E0.38813
G1 X142.100 Y107.257 E0.04916
G1 X144.956 Y107.263 E0.08955
G1 X145.846 Y107.503 E0.02889
G1 X145.984 Y107.572 E0.00483
G1 X146.378 Y107.769 F10800.000
G1 F1200.000
G1 X146.649 Y107.905 E0.00951
G1 X147.785 Y108.918 E0.04772
G1 X148.476 Y110.000 E0.04023
G1 X148.854 Y111.434 E0.04652
G1 X148.814 Y118.727 E0.22866
G1 X148.338 Y120.154 E0.04716
G1 X147.743 Y121.001 E0.03247
G1 X146.881 Y121.804 E0.03693
G1 X146.019 Y122.295 E0.03111
G1 X145.032 Y122.590 E0.03230
G1 X140.250 Y122.624 E0.14993
G1 X139.112 Y122.316 E0.03697
G1 X138.057 Y121.689 E0.03848
G1 X137.184 Y120.827 E0.03847
G1 X137.064 Y120.648 E0.00676
G1 X111.607 Y120.648 E0.79819
G1 X111.406 Y120.927 E0.01080
G1 X110.449 Y121.826 E0.04115
G1 X109.497 Y122.342 E0.03397
G1 X108.491 Y122.616 E0.03267
G1 X103.790 Y122.613 E0.14742
G1 X102.406 Y122.177 E0.04548
G1 X101.476 Y121.540 E0.03536
G1 X100.697 Y120.711 E0.03566
G1 X100.200 Y119.859 E0.03093
G1 X99.894 Y118.879 E0.03219
G1 X99.919 Y110.833 E0.25228
G1 X100.271 Y109.855 E0.03259
G1 X100.820 Y109.005 E0.03171
G1 X101.852 Y108.023 E0.04466
G1 X101.850 Y107.863 F10800.000
G1 F1200.000
G1 X101.577 Y107.463 E0.01518
G1 X101.062 Y105.833 E0.05357
G1 X101.052 Y93.355 E0.39127
G1 X100.245 Y92.492 E0.03704
G1 X99.641 Y91.270 E0.04275
G1 X99.450 Y90.225 E0.03331
G1 X99.512 Y87.319 E0.09114
G1 X99.807 Y86.342 E0.03199
G1 X100.249 Y85.548 E0.02850
G1 X101.099 Y84.626 E0.03932
G1 X101.874 Y84.065 E0.02999
G1 X102.345 Y83.908 E0.01556
G1 X102.752 Y83.771 F10800.000
G1 F1200.000
G1 X103.443 Y83.540 E0.02284
G1 X103.958 Y83.515 E0.01619
G1 X103.646 Y82.502 E0.03323
G1 X103.630 Y80.571 E0.06057
G1 X103.369 Y80.299 E0.01181
G1 X103.450 Y79.842 F10800.000
G1 F1200.000
G1 X104.005 Y80.416 E0.02503
G1 X104.023 Y82.470 E0.06439
G1 X104.476 Y83.889 E0.04671
G1 X103.533 Y83.908 E0.02959
G1 X102.677 Y84.194 E0.02830
G1 X102.270 Y84.330 F10800.000
G1 F1200.000
G1 X102.022 Y84.413 E0.00819
G1 X101.363 Y84.896 E0.02560
G1 X100.566 Y85.753 E0.03670
G1 X100.160 Y86.474 E0.02593
G1 X99.888 Y87.354 E0.02889
G1 X99.827 Y90.213 E0.08967
G1 X100.007 Y91.174 E0.03064
G1 X100.569 Y92.298 E0.03940
G1 X101.429 Y93.203 E0.03916
G1 X101.439 Y105.803 E0.39507
G1 X101.840 Y107.049 E0.04102
G1 X102.226 Y107.739 F10800.000
G1 F1200.000
G1 X102.476 Y108.092 E0.01357
G1 X102.232 Y108.236 E0.00889
G1 X101.858 Y108.536 F10800.000
G1 F1200.000
G1 X101.124 Y109.229 E0.03165
G1 X100.600 Y110.041 E0.03029
G1 X100.285 Y110.928 E0.02952
G1 X100.271 Y118.849 E0.24836
G1 X100.552 Y119.723 E0.02879
G1 X100.987 Y120.468 E0.02704
G1 X101.736 Y121.266 E0.03433
G1 X102.595 Y121.849 E0.03255
G1 X103.819 Y122.236 E0.04025
G1 X108.417 Y122.245 E0.14415
G1 X109.376 Y121.984 E0.03116
G1 X110.246 Y121.508 E0.03111
G1 X111.131 Y120.668 E0.03824
G1 X111.249 Y120.500 E0.00644
G1 F8640.000
G1 X111.131 Y120.668 E-0.04746
G1 X110.246 Y121.508 E-0.28164
G1 X109.376 Y121.984 E-0.22913
G1 X108.533 Y122.214 E-0.20177
G1 E-0.04000 F2100.00000
G1 Z0.800 F10800.000
G1 X137.420 Y120.500
G1 Z0.200
G1 E0.80000 F2100.00000
G1 F1200.000
G1 X137.469 Y120.579 E0.00291
G1 X138.272 Y121.378 E0.03553
G1 X139.237 Y121.959 E0.03531
G1 X140.324 Y122.253 E0.03532
G1 X145.001 Y122.213 E0.14664
G1 X145.887 Y121.941 E0.02907
G1 X146.674 Y121.488 E0.02845
G1 X147.470 Y120.740 E0.03426
G1 X148.013 Y119.960 E0.02980
G1 X148.437 Y118.695 E0.04186
G1 X148.477 Y111.457 E0.22694
G1 X148.141 Y110.176 E0.04153
G1 X147.514 Y109.181 E0.03685
G1 X146.413 Y108.202 E0.04622
G1 X146.019 Y108.008 F10800.000
G1 F1200.000
G1 X145.696 Y107.849 E0.01128
G1 X144.930 Y107.640 E0.02489
G1 X141.423 Y107.633 E0.10996
G1 X141.804 Y106.887 E0.02626
G1 X142.102 Y105.712 E0.03801
G1 X142.102 Y93.204 E0.39216
G1 X142.937 Y92.334 E0.03783
G1 X143.401 Y91.497 E0.02998
G1 X143.702 Y90.311 E0.03837
G1 X143.692 Y87.707 E0.08165
G1 X143.421 Y86.598 E0.03580
G1 X142.764 Y85.451 E0.04144
G1 X143.147 Y85.160 E0.01508
G1 X143.991 Y84.234 E0.03929
G1 X144.086 Y84.051 E0.00645
G1 X144.411 Y83.390 F10800.000
G1 F1200.000
G1 X144.677 Y82.320 E0.03457
G1 X144.663 Y64.241 E0.56685
G1 X144.331 Y63.054 E0.03866
G1 X143.635 Y61.991 E0.03984
G1 X142.507 Y61.033 E0.04640
G1 X141.681 Y60.674 E0.02823
G1 X140.808 Y60.501 E0.02791
G1 X107.824 Y60.498 E1.03418
G1 X106.078 Y61.086 E0.05779
G1 X105.502 Y61.538 E0.02295
G1 X104.660 Y62.477 E0.03954
G1 X104.292 Y63.194 E0.02527
G1 X104.019 Y64.233 E0.03366
G1 X104.006 Y70.454 E0.19508
G1 X103.106 Y71.411 E0.04118
G1 X102.689 Y72.201 E0.02800
G1 X102.416 Y73.262 E0.03436
G1 X102.482 Y78.013 E0.14898
G1 X102.759 Y78.839 E0.02731
G1 X103.133 Y79.472 E0.02306
G1 X103.531 Y79.390 F10800.000
G1 F1200.000
G1 X104.381 Y80.261 E0.03817
G1 X104.400 Y82.437 E0.06823
G1 X104.821 Y83.724 E0.04247
G1 X105.187 Y84.264 E0.02043
G1 X103.623 Y84.275 E0.04903
G1 X102.602 Y84.617 E0.03376
G1 X102.194 Y84.753 F10800.000
G1 F1200.000
G1 X101.603 Y85.187 E0.02298
G1 X100.883 Y85.959 E0.03313
G1 X100.513 Y86.608 E0.02341
G1 X100.265 Y87.390 E0.02572
G1 X100.204 Y90.201 E0.08816
G1 X100.372 Y91.076 E0.02793
G1 X100.892 Y92.101 E0.03603
G1 X101.663 Y92.902 E0.03486
G1 F8640.000
G1 X100.892 Y92.101 E-0.25673
G1 X100.372 Y91.076 E-0.26536
G1 X100.204 Y90.201 E-0.20571
G1 X100.207 Y90.062 E-0.03220
G1 E-0.04000 F2100.00000
G1 Z0.800 F10800.000
G1 X101.815 Y105.095
G1 Z0.200
G1 E0.80000 F2100.00000
G1 F1200.000
G1 X101.824 Y105.798 E0.02205
G1 F8640.000
G1 X101.815 Y105.095 E-0.16235
G1 E-0.63765 F2100.00000
G1 Z0.800 F10800.000
G1 X102.216 Y106.992
G1 Z0.200
G1 E0.80000 F2100.00000
G1 F1200.000
G1 X102.275 Y107.170 E0.00589
G1 X102.712 Y107.771 E0.02329
G1 X103.128 Y108.163 E0.01793
G1 X102.325 Y108.614 E0.02885
G1 X102.237 Y108.696 E0.00378
G1 X101.865 Y109.045 F10800.000
G1 F1200.000
G1 X101.427 Y109.455 E0.01880
G1 X100.948 Y110.189 E0.02747
G1 X100.651 Y111.024 E0.02779
G1 X100.648 Y118.818 E0.24437
G1 X100.903 Y119.585 E0.02536
G1 X101.276 Y120.226 E0.02325
G1 X101.996 Y120.992 E0.03298
G1 X102.783 Y121.521 E0.02972
G1 X103.850 Y121.859 E0.03508
G1 X108.343 Y121.875 E0.14088
G1 X109.255 Y121.627 E0.02963
G1 X110.041 Y121.190 E0.02821
G1 X110.762 Y120.500 E0.03131
G1 X111.052 Y120.123 F10800.000
G1 F1200.000
G1 X111.208 Y119.894 E0.00869
G1 X137.500 Y119.894 E0.82436
G1 X137.633 Y120.122 E0.00831
G1 X137.922 Y120.500 F10800.000
G1 F1200.000
G1 X138.486 Y121.067 E0.02511
G1 X139.408 Y121.622 E0.03371
G1 X140.395 Y121.882 E0.03202
G1 X144.968 Y121.836 E0.14339
G1 X145.753 Y121.588 E0.02583
G1 X146.431 Y121.198 E0.02451
G1 X147.197 Y120.480 E0.03293
G1 X147.688 Y119.768 E0.02710
G1 X148.060 Y118.662 E0.03659
G1 X148.100 Y111.479 E0.22523
G1 X147.805 Y110.350 E0.03659
G1 X147.243 Y109.445 E0.03342
G1 X146.456 Y108.744 E0.03303
G1 X146.054 Y108.440 F10800.000
G1 F1200.000
G1 X145.548 Y108.196 E0.01760
G1 X144.904 Y108.017 E0.02097
G1 X140.571 Y108.008 E0.13585
G1 X141.124 Y107.386 E0.02608
G1 X141.445 Y106.771 E0.02178
G1 X141.725 Y105.688 E0.03507
G1 X141.725 Y93.053 E0.39616
G1 X142.647 Y92.091 E0.04178
G1 X143.058 Y91.338 E0.02689
G1 X143.325 Y90.288 E0.03397
G1 X143.320 Y87.772 E0.07888
G1 X143.079 Y86.758 E0.03269
G1 X142.584 Y85.874 E0.03175
G1 X142.163 Y85.427 E0.01927
G1 X142.882 Y84.891 E0.02814
G1 X143.669 Y84.036 E0.03643
G1 X144.029 Y83.351 E0.02427
G1 F8640.000
G1 X143.669 Y84.036 E-0.17872
G1 X142.882 Y84.891 E-0.26829
G1 X142.163 Y85.427 E-0.20722
G1 X142.477 Y85.760 E-0.10577
G1 E-0.04000 F2100.00000
G1 Z0.800 F10800.000
G1 X144.299 Y82.009
G1 Z0.200
G1 E0.80000 F2100.00000
G1 F1200.000
G1 X144.286 Y64.268 E0.55624
G1 X143.977 Y63.185 E0.03531
G1 X143.369 Y62.259 E0.03472
G1 X142.328 Y61.367 E0.04299
G1 X141.586 Y61.039 E0.02545
G1 X140.789 Y60.879 E0.02550
G1 X107.855 Y60.875 E1.03262
G1 X106.284 Y61.403 E0.05198
G1 X105.770 Y61.804 E0.02043
G1 X104.983 Y62.673 E0.03675
G1 X104.651 Y63.313 E0.02261
G1 X104.396 Y64.259 E0.03071
G1 X104.382 Y70.606 E0.19902
G1 X103.426 Y71.612 E0.04353
G1 X103.048 Y72.320 E0.02515
G1 X102.793 Y73.284 E0.03127
G1 X102.848 Y77.922 E0.14542
G1 X103.109 Y78.700 E0.02573
G1 X103.233 Y78.907 E0.00758
G1 X103.629 Y78.838 F10800.000
G1 F1200.000
G1 X103.820 Y79.153 E0.01156
G1 X104.549 Y79.897 E0.03267
G1 X104.758 Y80.042 E0.00795
G1 X104.767 Y82.348 E0.07231
G1 X105.170 Y83.577 E0.04055
G1 X105.555 Y84.114 E0.02074
G1 X106.110 Y84.644 E0.02403
G1 X103.711 Y84.643 E0.07522
G1 X102.528 Y85.031 E0.03901
G1 X102.100 Y85.283 F10800.000
G1 F1200.000
G1 X101.866 Y85.458 E0.00915
G1 X101.198 Y86.167 E0.03056
G1 X100.865 Y86.745 E0.02092
G1 X100.641 Y87.427 E0.02249
G1 X100.582 Y90.188 E0.08661
G1 X100.737 Y90.978 E0.02522
G1 X101.184 Y91.862 E0.03107
G1 X101.656 Y92.358 E0.02148
G1 X102.038 Y92.730 F10800.000
G1 F1200.000
G1 X102.183 Y92.832 E0.00555
G1 X102.192 Y105.092 E0.38442
G1 X102.201 Y105.765 F10800.000
G1 F1200.000
G1 X102.622 Y107.020 E0.04152
G1 X103.002 Y107.530 E0.01994
G1 X103.877 Y108.339 E0.03737
G1 X103.033 Y108.646 E0.02814
G1 X102.565 Y108.906 E0.01681
G1 X102.244 Y109.204 E0.01373
G1 X101.871 Y109.550 F10800.000
G1 F1200.000
G1 X101.728 Y109.683 E0.00610
G1 X101.295 Y110.337 E0.02460
G1 X101.017 Y111.119 E0.02603
G1 X101.025 Y118.785 E0.24034
G1 X101.253 Y119.444 E0.02187
G1 X101.566 Y119.984 E0.01956
G1 X102.256 Y120.718 E0.03160
G1 X102.969 Y121.192 E0.02686
G1 X103.880 Y121.482 E0.02997
G1 X108.269 Y121.504 E0.13759
G1 X109.133 Y121.269 E0.02807
G1 X109.834 Y120.874 E0.02525
G1 X110.221 Y120.500 E0.01688
G1 X110.599 Y120.123 F10800.000
G1 F1200.000
G1 X111.006 Y119.516 E0.02288
G1 X137.722 Y119.516 E0.83768
G1 X138.078 Y120.122 E0.02203
G1 X138.449 Y120.500 F10800.000
G1 F1200.000
G1 X138.704 Y120.758 E0.01139
G1 X139.531 Y121.264 E0.03041
G1 X140.466 Y121.511 E0.03033
G1 X144.934 Y121.459 E0.14007
G1 X145.617 Y121.236 E0.02255
G1 X146.190 Y120.908 E0.02067
G1 X146.924 Y120.219 E0.03157
G1 X147.362 Y119.577 E0.02437
G1 X147.684 Y118.629 E0.03137
G1 X147.723 Y111.501 E0.22350
G1 X147.469 Y110.522 E0.03172
G1 X146.971 Y109.707 E0.02995
G1 X146.500 Y109.288 E0.01975
G1 X146.093 Y108.925 F10800.000
G1 F1200.000
G1 X145.957 Y108.804 E0.00570
G1 X145.428 Y108.554 E0.01834
G1 X144.875 Y108.394 E0.01804
G1 X139.977 Y108.384 E0.15357
G1 X139.890 Y108.131 E0.00841
G1 X140.068 Y107.991 E0.00710
G1 X140.801 Y107.189 E0.03407
G1 X141.101 Y106.615 E0.02030
G1 X141.348 Y105.663 E0.03082
G1 X141.348 Y92.833 E0.40229
G1 X141.562 Y92.684 E0.00817
G1 X142.330 Y91.886 E0.03473
G1 X142.700 Y91.220 E0.02390
G1 X142.948 Y90.263 E0.03097
G1 X142.948 Y87.835 E0.07613
G1 X142.736 Y86.918 E0.02951
G1 X142.268 Y86.081 E0.03007
G1 X141.438 Y85.227 E0.03733
G1 X142.134 Y84.979 E0.02316
G1 X142.619 Y84.620 E0.01890
G1 X143.349 Y83.836 E0.03360
G1 X143.676 Y83.223 E0.02179
G1 X143.922 Y82.272 E0.03080
G1 X143.922 Y82.024 E0.00778
G1 F8640.000
G1 X143.922 Y82.272 E-0.05727
G1 X143.676 Y83.223 E-0.22680
G1 X143.349 Y83.836 E-0.16047
G1 X142.619 Y84.620 E-0.24741
G1 X142.382 Y84.795 E-0.06805
G1 E-0.04000 F2100.00000
G1 Z0.800 F10800.000
G1 X143.919 Y77.290
G1 Z0.200
G1 E0.80000 F2100.00000
G1 F1200.000
G1 X143.909 Y64.296 E0.40742
G1 X143.623 Y63.318 E0.03193
G1 X143.103 Y62.527 E0.02971
G1 X142.148 Y61.699 E0.03960
G1 X141.489 Y61.404 E0.02266
G1 X140.769 Y61.256 E0.02304
G1 X107.885 Y61.252 E1.03104
G1 X106.489 Y61.721 E0.04620
G1 X106.036 Y62.071 E0.01793
G1 X105.305 Y62.870 E0.03398
G1 X105.009 Y63.434 E0.01995
G1 X104.773 Y64.285 E0.02770
G1 X104.760 Y70.317 E0.18912
G1 X104.657 Y70.897 F10800.000
G1 F1200.000
G1 X104.543 Y70.976 E0.00434
G1 X103.745 Y71.814 E0.03629
G1 X103.406 Y72.441 E0.02234
G1 X103.170 Y73.307 E0.02814
G1 X103.215 Y77.830 E0.14182
G1 X103.352 Y78.238 E0.01350
G1 X103.739 Y78.216 F10800.000
G1 F1200.000
G1 X103.809 Y78.414 E0.00661
G1 X104.129 Y78.937 E0.01921
G1 X104.801 Y79.616 E0.02997
G1 X105.135 Y79.836 E0.01253
G1 X105.135 Y82.259 E0.07599
G1 X105.518 Y83.430 E0.03861
G1 X105.847 Y83.875 E0.01735
G1 X106.539 Y84.523 E0.02974
G1 X106.922 Y84.740 E0.01378
G1 X106.848 Y85.021 E0.00911
G1 X103.740 Y85.020 E0.09743
G1 X102.570 Y85.404 E0.03862
G1 X102.446 Y85.495 E0.00485
G1 X101.996 Y85.868 F10800.000
G1 F1200.000
G1 X101.512 Y86.377 E0.02204
G1 X101.215 Y86.887 E0.01849
G1 X101.017 Y87.465 E0.01917
G1 X100.959 Y90.175 E0.08499
G1 X101.101 Y90.878 E0.02248
G1 X101.477 Y91.622 E0.02613
G1 X101.650 Y91.804 E0.00787
G1 X102.032 Y92.206 F10800.000
G1 F1200.000
G1 X102.211 Y92.394 E0.00818
G1 X102.560 Y92.627 E0.01314
G1 X102.570 Y105.710 E0.41022
G1 X102.943 Y106.820 E0.03672
