; generated by PrusaSlicer 2.2.0+win64 on 2020-09-14 at 17:37:13 UTC

; 

; external perimeters extrusion width = 0.60mm
; perimeters extrusion width = 0.50mm
; infill extrusion width = 0.50mm
; solid infill extrusion width = 0.50mm
; top infill extrusion width = 0.45mm
; first layer extrusion width = 0.42mm

M73 P0 R74
M73 Q0 S74
M201 X1000 Y1000 Z1000 E5000 ; sets maximum accelerations, mm/sec^2
M203 X200 Y200 Z12 E120 ; sets maximum feedrates, mm/sec
M204 P1250 R1250 T1250 ; sets acceleration (P, T) and retract acceleration (R), mm/sec^2
M205 X8.00 Y8.00 Z0.40 E4.50 ; sets the jerk limits, mm/sec
M205 S0 T0 ; sets the minimum extruding and travel feed rate, mm/sec
M107
M862.3 P "MK3" ; printer model check
M862.1 P0.4 ; nozzle diameter check
M115 U3.8.1 ; tell printer latest fw version
G90 ; use absolute coordinates
M83 ; extruder relative mode
M104 S215 ; set extruder temp
M140 S60 ; set bed temp
M190 S60 ; wait for bed temp
M109 S215 ; wait for extruder temp
G28 W ; home all without mesh bed level
G80 ; mesh bed leveling
G1 Y-3.0 F1000.0 ; go outside print area
G92 E0.0
G1 X60.0 E9.0 F1000.0 ; intro line
M73 Q0 S74
M73 P0 R73
G1 X100.0 E12.5 F1000.0 ; intro line
G92 E0.0
M221 S95
G21 ; set units to millimeters
G90 ; use absolute coordinates
M83 ; use relative distances for extrusion
M900 K30 ; Filament gcode
;BEFORE_LAYER_CHANGE
G92 E0.0
;0.2


G1 E-0.80000 F2100.00000
G1 Z0.600 F10800.000
;AFTER_LAYER_CHANGE
;0.2
G1 X112.568 Y143.773
G1 Z0.200
G1 E0.80000 F2100.00000
M204 S1000
G1 F1200.000
G1 X112.226 Y142.976 E0.02720
G1 X108.572 Y123.904 E0.60886
G1 X108.601 Y118.304 E0.17557
G1 X112.182 Y99.198 E0.60949
G1 X112.330 Y98.722 E0.01562
G1 X112.574 Y98.288 E0.01562
G1 X112.942 Y97.878 E0.01728
G1 X113.392 Y97.566 E0.01716
G1 X113.901 Y97.365 E0.01716
G1 X114.443 Y97.286 E0.01716
G1 X146.517 Y97.285 E1.00568
G1 X147.280 Y97.412 E0.02426
G1 X147.965 Y97.780 E0.02437
G1 X148.495 Y98.349 E0.02437
G1 X148.812 Y99.055 E0.02426
G1 X152.124 Y118.572 E0.62071
G1 X152.102 Y124.210 E0.17677
G1 X148.883 Y142.884 E0.59413
G1 X148.735 Y143.379 E0.01621
G1 X148.485 Y143.827 E0.01609
G1 X148.111 Y144.242 E0.01752
G1 X147.654 Y144.556 E0.01740
G1 X147.132 Y144.757 E0.01752
G1 X146.582 Y144.830 E0.01740
G1 X114.515 Y144.830 E1.00545
G1 X113.811 Y144.714 E0.02237
G1 X113.173 Y144.394 E0.02237
G1 X112.610 Y143.816 E0.02531
G1 F8640.000
G1 X112.226 Y142.976 E-0.21327
G1 X111.781 Y140.650 E-0.54673
G1 E-0.04000 F2100.00000
G1 Z0.800 F10800.000
G1 X115.301 Y115.875
G1 Z0.200
G1 E0.80000 F2100.00000
G1 F1200.000
G1 X115.301 Y100.449 E0.48367
G1 X145.726 Y100.449 E0.95398
G1 X145.726 Y115.875 E0.48367
G1 X115.361 Y115.875 E0.95210
G1 X114.924 Y116.252 F10800.000
G1 F1200.000
G1 X114.924 Y100.072 E0.50731
G1 X146.104 Y100.072 E0.97763
G1 X146.104 Y116.252 E0.50731
G1 X114.984 Y116.252 E0.97575
G1 X115.066 Y115.879 F10800.000
G1 F8640.000
G1 X114.971 Y112.961 E-0.76000
G1 E-0.04000 F2100.00000
G1 Z0.800 F10800.000
G1 X145.613 Y101.327
G1 Z0.200
G1 E0.80000 F2100.00000
G1 F1200.000
G1 X145.018 Y100.732 E0.02648
G1 X144.483 Y100.732 E0.01683
G1 X145.444 Y101.693 E0.04273
G1 X145.444 Y102.228 E0.01683
G1 X143.948 Y100.732 E0.06653
G1 X143.413 Y100.732 E0.01683
G1 X145.444 Y102.763 E0.09033
G1 X145.444 Y103.298 E0.01683
G1 X142.878 Y100.732 E0.11413
G1 X142.343 Y100.732 E0.01683
G1 X145.444 Y103.833 E0.13792
G1 X145.444 Y104.368 E0.01683
G1 X141.808 Y100.732 E0.16172
G1 X141.273 Y100.732 E0.01683
G1 X145.444 Y104.903 E0.18552
G1 X145.444 Y105.438 E0.01683
G1 X140.738 Y100.732 E0.20932
G1 X140.203 Y100.732 E0.01683
G1 X145.444 Y105.973 E0.23312
G1 X145.444 Y106.508 E0.01683
G1 X139.668 Y100.732 E0.25692
G1 X139.133 Y100.732 E0.01683
G1 X145.444 Y107.043 E0.28072
G1 X145.444 Y107.578 E0.01683
G1 X138.598 Y100.732 E0.30452
G1 X138.063 Y100.732 E0.01683
G1 X145.444 Y108.113 E0.32832
G1 X145.444 Y108.648 E0.01683
G1 X137.528 Y100.732 E0.35212
G1 X136.993 Y100.732 E0.01683
G1 X145.444 Y109.183 E0.37592
G1 X145.444 Y109.718 E0.01683
G1 X136.458 Y100.732 E0.39972
G1 X135.923 Y100.732 E0.01683
G1 X145.444 Y110.253 E0.42352
G1 X145.444 Y110.788 E0.01683
G1 X135.388 Y100.732 E0.44732
G1 X134.853 Y100.732 E0.01683
G1 X145.444 Y111.323 E0.47111
G1 X145.444 Y111.858 E0.01683
G1 X134.318 Y100.732 E0.49491
G1 X133.783 Y100.732 E0.01683
G1 X145.444 Y112.393 E0.51871
G1 X145.444 Y112.928 E0.01683
G1 X133.248 Y100.732 E0.54251
G1 X132.713 Y100.732 E0.01683
G1 X145.444 Y113.463 E0.56631
G1 X145.444 Y113.998 E0.01683
G1 X132.178 Y100.732 E0.59011
G1 X131.643 Y100.732 E0.01683
G1 X145.444 Y114.533 E0.61391
G1 X145.444 Y115.068 E0.01683
G1 X131.108 Y100.732 E0.63771
G1 X130.573 Y100.732 E0.01683
G1 X145.434 Y115.592 E0.66106
G1 X144.899 Y115.592 E0.01683
G1 X130.038 Y100.732 E0.66106
G1 X129.503 Y100.732 E0.01683
G1 X144.364 Y115.592 E0.66106
G1 X143.829 Y115.592 E0.01683
G1 X128.968 Y100.732 E0.66106
G1 X128.433 Y100.732 E0.01683
G1 X143.294 Y115.592 E0.66106
G1 X142.759 Y115.592 E0.01683
G1 X127.898 Y100.732 E0.66106
G1 X127.363 Y100.732 E0.01683
G1 X142.224 Y115.592 E0.66106
G1 X141.689 Y115.592 E0.01683
G1 X126.828 Y100.732 E0.66106
G1 X126.293 Y100.732 E0.01683
G1 X141.154 Y115.592 E0.66106
G1 X140.619 Y115.592 E0.01683
G1 X125.758 Y100.732 E0.66106
G1 X125.223 Y100.732 E0.01683
G1 X140.084 Y115.592 E0.66106
G1 X139.549 Y115.592 E0.01683
G1 X124.688 Y100.732 E0.66106
G1 X124.153 Y100.732 E0.01683
G1 X139.014 Y115.592 E0.66106
G1 X138.479 Y115.592 E0.01683
G1 X123.618 Y100.732 E0.66106
G1 X123.083 Y100.732 E0.01683
G1 X137.944 Y115.592 E0.66106
G1 X137.409 Y115.592 E0.01683
G1 X122.548 Y100.732 E0.66106
G1 X122.013 Y100.732 E0.01683
G1 X136.874 Y115.592 E0.66106
G1 X136.339 Y115.592 E0.01683
G1 X121.478 Y100.732 E0.66106
G1 X120.943 Y100.732 E0.01683
G1 X135.804 Y115.592 E0.66106
G1 X135.269 Y115.592 E0.01683
G1 X120.408 Y100.732 E0.66106
M73 Q1 S73
G1 X119.873 Y100.732 E0.01683
G1 X134.734 Y115.592 E0.66106
M73 P1 R72
G1 X134.199 Y115.592 E0.01683
G1 X119.338 Y100.732 E0.66106
G1 X118.803 Y100.732 E0.01683
G1 X133.664 Y115.592 E0.66106
G1 X133.129 Y115.592 E0.01683
G1 X118.268 Y100.732 E0.66106
G1 X117.733 Y100.732 E0.01683
G1 X132.594 Y115.592 E0.66106
G1 X132.059 Y115.592 E0.01683
G1 X117.198 Y100.732 E0.66106
G1 X116.663 Y100.732 E0.01683
G1 X131.524 Y115.592 E0.66106
G1 X130.989 Y115.592 E0.01683
G1 X116.128 Y100.732 E0.66106
G1 X115.593 Y100.732 E0.01683
G1 X130.454 Y115.592 E0.66106
G1 X129.919 Y115.592 E0.01683
G1 X115.583 Y101.257 E0.63771
G1 X115.583 Y101.792 E0.01683
G1 X129.384 Y115.592 E0.61391
G1 X128.849 Y115.592 E0.01683
G1 X115.583 Y102.327 E0.59011
G1 X115.583 Y102.862 E0.01683
G1 X128.314 Y115.592 E0.56631
G1 X127.779 Y115.592 E0.01683
G1 X115.583 Y103.397 E0.54251
G1 X115.583 Y103.932 E0.01683
G1 X127.244 Y115.592 E0.51871
G1 X126.709 Y115.592 E0.01683
G1 X115.583 Y104.467 E0.49491
G1 X115.583 Y105.002 E0.01683
G1 X126.174 Y115.592 E0.47111
G1 X125.639 Y115.592 E0.01683
G1 X115.583 Y105.537 E0.44731
G1 X115.583 Y106.072 E0.01683
G1 X125.104 Y115.592 E0.42351
G1 X124.569 Y115.592 E0.01683
G1 X115.583 Y106.607 E0.39971
G1 X115.583 Y107.142 E0.01683
G1 X124.034 Y115.592 E0.37591
G1 X123.499 Y115.592 E0.01683
G1 X115.583 Y107.677 E0.35211
G1 X115.583 Y108.212 E0.01683
G1 X122.964 Y115.592 E0.32832
G1 X122.429 Y115.592 E0.01683
G1 X115.583 Y108.747 E0.30452
G1 X115.583 Y109.282 E0.01683
G1 X121.894 Y115.592 E0.28072
G1 X121.359 Y115.592 E0.01683
G1 X115.583 Y109.817 E0.25692
G1 X115.583 Y110.352 E0.01683
G1 X120.824 Y115.592 E0.23312
G1 X120.289 Y115.592 E0.01683
G1 X115.583 Y110.887 E0.20932
G1 X115.583 Y111.422 E0.01683
G1 X119.754 Y115.592 E0.18552
G1 X119.219 Y115.592 E0.01683
G1 X115.583 Y111.957 E0.16172
G1 X115.583 Y112.492 E0.01683
G1 X118.684 Y115.592 E0.13792
G1 X118.149 Y115.592 E0.01683
G1 X115.583 Y113.027 E0.11412
G1 X115.583 Y113.562 E0.01683
G1 X117.614 Y115.592 E0.09032
G1 X117.079 Y115.592 E0.01683
G1 X115.583 Y114.097 E0.06652
G1 X115.583 Y114.632 E0.01683
G1 X116.544 Y115.592 E0.04272
G1 X116.009 Y115.592 E0.01683
G1 X115.414 Y114.997 E0.02647
G1 F8640.000
G1 X116.009 Y115.592 E-0.19432
G1 X116.544 Y115.592 E-0.12353
G1 X115.583 Y114.632 E-0.31361
G1 X115.583 Y114.097 E-0.12353
G1 X115.599 Y114.112 E-0.00500
G1 E-0.04000 F2100.00000
G1 Z0.800 F10800.000
G1 X147.336 Y121.085
G1 Z0.200
G1 E0.80000 F2100.00000
G1 F1200.000
G1 X113.362 Y121.085 E1.06524
G1 X113.362 Y123.085 E0.06271
G1 X111.736 Y123.085 E0.05098
G1 X111.736 Y119.459 E0.11369
G1 X148.962 Y119.459 E1.16719
G1 X148.962 Y123.085 E0.11369
G1 X147.336 Y123.085 E0.05098
G1 X147.336 Y121.145 E0.06083
G1 X146.959 Y121.462 F10800.000
G1 F1200.000
G1 X113.739 Y121.462 E1.04159
G1 X113.739 Y123.462 E0.06271
G1 X111.359 Y123.462 E0.07462
G1 X111.359 Y119.082 E0.13733
G1 X149.339 Y119.082 E1.19084
G1 X149.339 Y123.462 E0.13733
G1 X146.959 Y123.462 E0.07462
G1 X146.959 Y121.522 E0.06083
G1 X146.844 Y121.079 F10800.000
G1 X147.318 Y120.972
G1 F1200.000
G1 X146.088 Y119.742 E0.05519
G1 X145.548 Y119.742 E0.01712
G1 X146.609 Y120.802 E0.04758
G1 X146.069 Y120.802 E0.01712
G1 X145.009 Y119.742 E0.04758
G1 X144.469 Y119.742 E0.01712
G1 X145.529 Y120.802 E0.04758
G1 X144.990 Y120.802 E0.01712
G1 X143.929 Y119.742 E0.04758
G1 X143.390 Y119.742 E0.01712
G1 X144.450 Y120.802 E0.04758
G1 X143.910 Y120.802 E0.01712
G1 X142.850 Y119.742 E0.04758
G1 X142.310 Y119.742 E0.01712
G1 X143.371 Y120.802 E0.04758
G1 X142.831 Y120.802 E0.01712
G1 X141.771 Y119.742 E0.04758
G1 X141.231 Y119.742 E0.01712
G1 X142.291 Y120.802 E0.04758
G1 X141.752 Y120.802 E0.01712
G1 X140.692 Y119.742 E0.04758
G1 X140.152 Y119.742 E0.01712
G1 X141.212 Y120.802 E0.04758
G1 X140.672 Y120.802 E0.01712
G1 X139.612 Y119.742 E0.04758
G1 X139.073 Y119.742 E0.01712
G1 X140.133 Y120.802 E0.04758
G1 X139.593 Y120.802 E0.01712
G1 X138.533 Y119.742 E0.04758
G1 X137.993 Y119.742 E0.01712
G1 X139.053 Y120.802 E0.04758
G1 X138.514 Y120.802 E0.01712
G1 X137.454 Y119.742 E0.04758
G1 X136.914 Y119.742 E0.01712
G1 X137.974 Y120.802 E0.04758
G1 X137.434 Y120.802 E0.01712
G1 X136.374 Y119.742 E0.04758
G1 X135.835 Y119.742 E0.01712
G1 X136.895 Y120.802 E0.04758
G1 X136.355 Y120.802 E0.01712
G1 X135.295 Y119.742 E0.04758
G1 X134.755 Y119.742 E0.01712
G1 X135.815 Y120.802 E0.04758
G1 X135.276 Y120.802 E0.01712
G1 X134.216 Y119.742 E0.04758
G1 X133.676 Y119.742 E0.01712
G1 X134.736 Y120.802 E0.04758
G1 X134.196 Y120.802 E0.01712
G1 X133.136 Y119.742 E0.04758
G1 X132.597 Y119.742 E0.01712
G1 X133.657 Y120.802 E0.04758
G1 X133.117 Y120.802 E0.01712
G1 X132.057 Y119.742 E0.04758
G1 X131.517 Y119.742 E0.01712
G1 X132.578 Y120.802 E0.04758
G1 X132.038 Y120.802 E0.01712
G1 X130.978 Y119.742 E0.04758
G1 X130.438 Y119.742 E0.01712
G1 X131.498 Y120.802 E0.04758
G1 X130.959 Y120.802 E0.01712
G1 X129.898 Y119.742 E0.04758
G1 X129.359 Y119.742 E0.01712
G1 X130.419 Y120.802 E0.04758
G1 X129.879 Y120.802 E0.01712
G1 X128.819 Y119.742 E0.04758
G1 X128.279 Y119.742 E0.01712
G1 X129.340 Y120.802 E0.04758
G1 X128.800 Y120.802 E0.01712
G1 X127.740 Y119.742 E0.04758
G1 X127.200 Y119.742 E0.01712
G1 X128.260 Y120.802 E0.04758
G1 X127.721 Y120.802 E0.01712
G1 X126.660 Y119.742 E0.04758
G1 X126.121 Y119.742 E0.01712
G1 X127.181 Y120.802 E0.04758
G1 X126.641 Y120.802 E0.01712
G1 X125.581 Y119.742 E0.04758
G1 X125.041 Y119.742 E0.01712
G1 X126.102 Y120.802 E0.04758
G1 X125.562 Y120.802 E0.01712
G1 X124.502 Y119.742 E0.04758
G1 X123.962 Y119.742 E0.01712
G1 X125.022 Y120.802 E0.04758
G1 X124.483 Y120.802 E0.01712
G1 X123.422 Y119.742 E0.04758
G1 X122.883 Y119.742 E0.01712
G1 X123.943 Y120.802 E0.04758
G1 X123.403 Y120.802 E0.01712
G1 X122.343 Y119.742 E0.04758
G1 X121.803 Y119.742 E0.01712
G1 X122.864 Y120.802 E0.04758
G1 X122.324 Y120.802 E0.01712
G1 X121.264 Y119.742 E0.04758
G1 X120.724 Y119.742 E0.01712
G1 X121.784 Y120.802 E0.04758
G1 X121.245 Y120.802 E0.01712
G1 X120.184 Y119.742 E0.04758
G1 X119.645 Y119.742 E0.01712
G1 X120.705 Y120.802 E0.04758
G1 X120.165 Y120.802 E0.01712
G1 X119.105 Y119.742 E0.04758
G1 X118.565 Y119.742 E0.01712
G1 X119.626 Y120.802 E0.04758
G1 X119.086 Y120.802 E0.01712
G1 X118.026 Y119.742 E0.04758
G1 X117.486 Y119.742 E0.01712
G1 X118.546 Y120.802 E0.04758
G1 X118.007 Y120.802 E0.01712
G1 X116.946 Y119.742 E0.04758
G1 X116.407 Y119.742 E0.01712
G1 X117.467 Y120.802 E0.04758
G1 X116.927 Y120.802 E0.01712
G1 X115.867 Y119.742 E0.04758
G1 X115.327 Y119.742 E0.01712
G1 X116.388 Y120.802 E0.04758
G1 X115.848 Y120.802 E0.01712
G1 X114.788 Y119.742 E0.04758
G1 X114.248 Y119.742 E0.01712
G1 X115.308 Y120.802 E0.04758
G1 X114.769 Y120.802 E0.01712
G1 X113.708 Y119.742 E0.04758
G1 X113.169 Y119.742 E0.01712
G1 X114.229 Y120.802 E0.04758
G1 X113.689 Y120.802 E0.01712
G1 X112.629 Y119.742 E0.04758
G1 X112.089 Y119.742 E0.01712
G1 X113.150 Y120.802 E0.04758
G1 X113.079 Y120.802 E0.00223
G1 X113.079 Y121.272 E0.01489
G1 X112.019 Y120.211 E0.04758
G1 X112.019 Y120.751 E0.01712
G1 X113.079 Y121.811 E0.04758
G1 X113.079 Y122.351 E0.01712
G1 X112.019 Y121.291 E0.04758
G1 X112.019 Y121.830 E0.01712
G1 X112.991 Y122.802 E0.04362
G1 X112.451 Y122.802 E0.01712
G1 X111.849 Y122.200 E0.02702
G1 F8640.000
G1 X112.451 Y122.802 E-0.19659
G1 X112.991 Y122.802 E-0.12461
G1 X112.019 Y121.830 E-0.31741
G1 X112.019 Y121.305 E-0.12139
G1 E-0.04000 F2100.00000
G1 Z0.800 F10800.000
G1 X147.449 Y122.183
G1 Z0.200
G1 E0.80000 F2100.00000
G1 F1200.000
G1 X148.069 Y122.802 E0.02781
G1 X148.609 Y122.802 E0.01712
G1 X147.619 Y121.813 E0.04441
G1 X147.619 Y121.273 E0.01712
G1 X148.679 Y122.333 E0.04758
G1 X148.679 Y121.794 E0.01712
G1 X146.628 Y119.742 E0.09206
G1 X147.167 Y119.742 E0.01712
G1 X148.679 Y121.254 E0.06784
G1 X148.679 Y120.714 E0.01712
G1 X147.707 Y119.742 E0.04362
G1 X148.247 Y119.742 E0.01712
G1 X148.849 Y120.344 E0.02702
G1 F8640.000
G1 X148.247 Y119.742 E-0.19664
G1 X147.707 Y119.742 E-0.12461
G1 X148.679 Y120.714 E-0.31745
G1 X148.679 Y121.240 E-0.12130
G1 E-0.04000 F2100.00000
G1 Z0.800 F10800.000
G1 X135.732 Y135.266
G1 Z0.200
G1 E0.80000 F2100.00000
G1 F1200.000
G1 X135.732 Y140.640 E0.16850
G1 X125.358 Y140.640 E0.32527
G1 X125.358 Y135.266 E0.16850
G1 X135.672 Y135.266 E0.32339
G1 X135.355 Y135.643 F10800.000
G1 F1200.000
G1 X135.355 Y140.263 E0.14486
G1 X125.735 Y140.263 E0.30163
G1 X125.735 Y135.643 E0.14486
G1 X135.295 Y135.643 E0.29975
G1 X135.751 Y135.584 F10800.000
G1 F8640.000
G1 X135.338 Y138.935 E-0.76000
G1 E-0.04000 F2100.00000
G1 Z0.800 F10800.000
G1 X145.758 Y126.266
G1 Z0.200
G1 E0.80000 F2100.00000
G1 F1200.000
G1 X145.758 Y141.666 E0.48286
G1 X115.332 Y141.666 E0.95398
G1 X115.332 Y126.266 E0.48286
G1 X113.732 Y126.266 E0.05017
G1 X113.732 Y126.240 E0.00081
G1 X147.358 Y126.240 E1.05432
G1 X147.358 Y126.266 E0.00081
G1 X145.818 Y126.266 E0.04829
G1 X146.135 Y126.643 F10800.000
G1 F1200.000
G1 X146.135 Y142.043 E0.48286
G1 X114.955 Y142.043 E0.97763
G1 X114.955 Y126.643 E0.48286
G1 X113.355 Y126.643 E0.05017
G1 X113.355 Y125.863 E0.02446
G1 X147.735 Y125.863 E1.07796
G1 X147.735 Y126.643 E0.02446
G1 X146.195 Y126.643 E0.04829
G1 X145.740 Y126.704 F10800.000
G1 X145.645 Y127.118
G1 F1200.000
G1 X145.050 Y126.523 E0.02648
G1 X144.515 Y126.523 E0.01683
G1 X145.475 Y127.484 E0.04273
G1 X145.475 Y128.019 E0.01683
G1 X143.980 Y126.523 E0.06653
G1 X143.445 Y126.523 E0.01683
G1 X145.475 Y128.554 E0.09033
G1 X145.475 Y129.089 E0.01683
G1 X142.910 Y126.523 E0.11413
G1 X142.375 Y126.523 E0.01683
G1 X145.475 Y129.624 E0.13792
G1 X145.475 Y130.159 E0.01683
G1 X141.840 Y126.523 E0.16172
G1 X141.305 Y126.523 E0.01683
G1 X145.475 Y130.694 E0.18552
G1 X145.475 Y131.229 E0.01683
G1 X140.770 Y126.523 E0.20932
M73 Q2 S72
G1 X140.235 Y126.523 E0.01683
G1 X145.475 Y131.764 E0.23312
G1 X145.475 Y132.299 E0.01683
G1 X139.700 Y126.523 E0.25692
G1 X139.165 Y126.523 E0.01683
G1 X145.475 Y132.834 E0.28072
M73 P2 R71
G1 X145.475 Y133.369 E0.01683
G1 X138.630 Y126.523 E0.30452
G1 X138.095 Y126.523 E0.01683
G1 X145.475 Y133.904 E0.32832
G1 X145.475 Y134.439 E0.01683
G1 X137.560 Y126.523 E0.35212
G1 X137.025 Y126.523 E0.01683
G1 X145.475 Y134.974 E0.37592
G1 X145.475 Y135.509 E0.01683
G1 X136.490 Y126.523 E0.39972
G1 X135.955 Y126.523 E0.01683
