; generated by PrusaSlicer 2.2.0+win64 on 2021-02-22 at 20:48:03 UTC

; 

; external perimeters extrusion width = 0.45mm
; perimeters extrusion width = 0.45mm
; infill extrusion width = 0.45mm
; solid infill extrusion width = 0.45mm
; top infill extrusion width = 0.40mm
; support material extrusion width = 0.35mm
; first layer extrusion width = 0.42mm

M73 P0 R539
M73 Q0 S546
M201 X1000 Y1000 Z200 E5000 ; sets maximum accelerations, mm/sec^2
M203 X200 Y200 Z12 E120 ; sets maximum feedrates, mm/sec
M204 P1250 R1250 T1250 ; sets acceleration (P, T) and retract acceleration (R), mm/sec^2
M205 X8.00 Y8.00 Z0.40 E4.50 ; sets the jerk limits, mm/sec
M205 S0 T0 ; sets the minimum extruding and travel feed rate, mm/sec
M107
M862.3 P "MK3S" ; printer model check
M862.1 P0.4 ; nozzle diameter check
M115 U3.9.1 ; tell printer latest fw version
G90 ; use absolute coordinates
M83 ; extruder relative mode
M104 S215 ; set extruder temp
M140 S60 ; set bed temp
M190 S60 ; wait for bed temp
M109 S215 ; wait for extruder temp
G28 W ; home all without mesh bed level
G80 ; mesh bed leveling
G1 Y-3.0 F1000.0 ; go outside print area
G92 E0.0
G1 X60.0 E9.0 F1000.0 ; intro line
M73 Q0 S546
M73 P0 R539
G1 X100.0 E12.5 F1000.0 ; intro line
G92 E0.0
M221 S95

; Don't change E values below. Excessive value can damage the printer.

M907 E538 ; set extruder motor current
G21 ; set units to millimeters
G90 ; use absolute coordinates
M83 ; use relative distances for extrusion
M900 K0.05 ; Filament gcode LA 1.5
M900 K30 ; Filament gcode LA 1.0
;BEFORE_LAYER_CHANGE
G92 E0.0
;0.2


G1 E-0.80000 F2100.00000
G1 Z0.600 F10800.000
;AFTER_LAYER_CHANGE
;0.2
G1 X64.826 Y58.056
G1 Z0.200
G1 E0.80000 F2100.00000
M204 S1000
G1 F1200.000
G1 X65.390 Y57.387 E0.02743
G1 X66.089 Y56.991 E0.02520
G1 X66.881 Y56.851 E0.02520
G1 X167.698 Y56.851 E3.16105
G1 X168.575 Y57.021 E0.02802
G1 X169.328 Y57.502 E0.02802
G1 X169.850 Y58.227 E0.02802
G1 X170.067 Y59.098 E0.02813
G1 X171.821 Y97.650 E1.21003
G1 X173.489 Y136.589 E1.22202
G1 X173.478 Y143.696 E0.22284
G1 X173.208 Y144.583 E0.02907
G1 X172.616 Y145.302 E0.02919
G1 X171.917 Y145.697 E0.02520
G1 X171.125 Y145.837 E0.02520
G1 X61.505 Y145.837 E3.43706
G1 X60.984 Y145.778 E0.01645
G1 X60.489 Y145.605 E0.01645
G1 X60.043 Y145.329 E0.01645
G1 X59.671 Y144.964 E0.01633
G1 X59.300 Y144.328 E0.02308
G1 X59.140 Y143.610 E0.02308
G1 X59.138 Y136.561 E0.22100
G1 X62.522 Y76.875 E1.87444
G1 X64.542 Y58.883 E0.56765
G1 X64.806 Y58.113 E0.02555
G1 F8640.000
G1 X65.390 Y57.387 E-0.21498
G1 X66.089 Y56.991 E-0.18556
G1 X66.881 Y56.851 E-0.18556
G1 X67.634 Y56.851 E-0.17389
G1 E-0.04000 F2100.00000
G1 Z0.800 F10800.000
G1 X61.737 Y94.039
G1 Z0.200
G1 E0.80000 F2100.00000
G1 F1200.000
G1 X61.880 Y93.904 E0.00614
G1 X62.959 Y93.317 E0.03853
G1 X64.207 Y93.041 E0.04008
G1 X169.945 Y93.045 E3.31536
G1 X171.030 Y93.279 E0.03480
G1 X171.443 Y93.488 E0.01451
G1 X171.830 Y93.684 F10800.000
G1 F1200.000
G1 X172.085 Y93.813 E0.00897
G1 X173.121 Y94.760 E0.04401
G1 X173.849 Y95.981 E0.04457
G1 X174.160 Y97.313 E0.04290
G1 X174.160 Y100.202 E0.09056
G1 X173.934 Y101.307 E0.03539
G1 X173.305 Y102.507 E0.04247
G1 X172.390 Y103.466 E0.04157
G1 X172.263 Y103.551 E0.00480
G1 F8640.000
G1 X172.390 Y103.466 E-0.03534
G1 X173.305 Y102.507 E-0.30616
G1 X173.934 Y101.307 E-0.31279
G1 X174.026 Y100.859 E-0.10571
G1 E-0.04000 F2100.00000
G1 Z0.800 F10800.000
G1 X172.158 Y109.925
G1 Z0.200
G1 E0.80000 F2100.00000
G1 F1200.000
G1 X172.154 Y126.036 E0.50515
G1 X172.015 Y126.853 E0.02598
G1 X171.305 Y128.311 E0.05084
G1 X170.496 Y129.174 E0.03708
G1 X169.449 Y129.859 E0.03925
G1 X168.223 Y130.230 E0.04015
G1 X165.649 Y130.254 E0.08070
G1 X165.617 Y131.952 E0.05325
G1 X171.684 Y131.959 E0.19022
G1 X172.605 Y132.152 E0.02950
G1 X173.121 Y132.399 E0.01792
G1 X173.506 Y132.584 F10800.000
G1 F1200.000
G1 X173.663 Y132.659 E0.00547
G1 X174.750 Y133.635 E0.04581
G1 X175.395 Y134.609 E0.03660
G1 X175.797 Y135.940 E0.04362
G1 X175.801 Y144.162 E0.25778
G1 X175.516 Y145.235 E0.03481
G1 X174.946 Y146.242 E0.03628
G1 X174.140 Y147.096 E0.03682
G1 X173.211 Y147.717 E0.03505
G1 X171.647 Y148.174 E0.05106
G1 X166.274 Y148.128 E0.16849
G1 X165.204 Y147.808 E0.03501
G1 X164.212 Y147.203 E0.03644
G1 X163.237 Y146.191 E0.04404
G1 X163.144 Y146.026 E0.00596
G1 F8640.000
G1 X163.237 Y146.191 E-0.04392
G1 X164.212 Y147.203 E-0.32430
G1 X165.204 Y147.808 E-0.26836
G1 X165.716 Y147.961 E-0.12342
G1 E-0.04000 F2100.00000
G1 Z0.800 F10800.000
G1 X69.470 Y146.026
G1 Z0.200
G1 E0.80000 F2100.00000
G1 F1200.000
G1 X69.324 Y146.274 E0.00901
G1 X68.224 Y147.349 E0.04823
G1 X66.993 Y147.973 E0.04328
G1 X65.931 Y148.175 E0.03388
G1 X60.553 Y148.105 E0.16865
G1 X59.581 Y147.798 E0.03194
G1 X58.691 Y147.269 E0.03246
G1 X57.874 Y146.486 E0.03548
G1 X57.264 Y145.583 E0.03417
G1 X56.799 Y143.970 E0.05263
G1 X56.828 Y135.944 E0.25164
G1 X57.183 Y134.713 E0.04018
G1 X57.683 Y133.868 E0.03081
G1 X58.450 Y133.054 E0.03506
G1 X59.175 Y132.570 E0.02733
G1 X59.565 Y132.349 F10800.000
G1 F1200.000
G1 X60.868 Y131.964 E0.04260
G1 X63.227 Y131.956 E0.07394
G1 X63.132 Y131.459 E0.01586
G1 X63.125 Y128.667 E0.08755
G1 X62.749 Y128.257 E0.01745
G1 X62.338 Y127.551 E0.02559
G1 X61.940 Y126.122 E0.04652
G1 X61.933 Y103.626 E0.70535
G1 X61.695 Y103.455 E0.00920
G1 X61.231 Y102.962 E0.02122
G1 X60.875 Y102.583 F10800.000
G1 F1200.000
G1 X60.723 Y102.421 E0.00696
G1 X60.234 Y101.497 E0.03277
G1 X59.933 Y100.264 E0.03980
G1 X59.933 Y97.325 E0.09214
G1 X60.211 Y96.068 E0.04037
G1 X60.957 Y94.775 E0.04680
G1 X61.338 Y94.415 E0.01643
G1 X61.707 Y94.582 F10800.000
G1 F1200.000
G1 X62.082 Y94.224 E0.01627
G1 X63.115 Y93.661 E0.03689
G1 X64.227 Y93.418 E0.03567
G1 X169.925 Y93.422 E3.31407
G1 X170.924 Y93.642 E0.03210
G1 X171.463 Y93.918 E0.01896
G1 X171.849 Y94.116 F10800.000
G1 F1200.000
G1 X172.844 Y95.017 E0.04210
G1 X173.509 Y96.146 E0.04108
G1 X173.783 Y97.334 E0.03823
G1 X173.783 Y100.182 E0.08928
G1 X173.571 Y101.205 E0.03275
G1 X173.014 Y102.266 E0.03757
G1 X172.242 Y103.075 E0.03507
G1 X171.877 Y103.349 F10800.000
G1 F1200.000
G1 X171.783 Y103.407 E0.00346
G1 X171.779 Y125.992 E0.70814
G1 X171.663 Y126.714 E0.02292
G1 X170.979 Y128.119 E0.04901
G1 X170.238 Y128.898 E0.03371
G1 X169.313 Y129.506 E0.03471
G1 X168.140 Y129.861 E0.03843
G1 X165.279 Y129.879 E0.08970
G1 X165.241 Y131.883 E0.06286
G1 X165.105 Y132.329 E0.01462
G1 X171.664 Y132.336 E0.20565
G1 X172.504 Y132.516 E0.02696
G1 X173.139 Y132.818 E0.02203
G1 X173.526 Y133.042 F10800.000
G1 F1200.000
G1 X174.481 Y133.900 E0.04025
G1 X175.043 Y134.746 E0.03185
G1 X175.420 Y135.970 E0.04014
G1 X175.431 Y144.089 E0.25457
G1 X175.158 Y145.114 E0.03325
G1 X174.631 Y146.035 E0.03327
G1 X173.911 Y146.796 E0.03285
G1 X173.074 Y147.364 E0.03172
G1 X171.622 Y147.797 E0.04752
G1 X166.356 Y147.759 E0.16509
G1 X165.337 Y147.454 E0.03337
G1 X164.431 Y146.895 E0.03336
G1 X163.601 Y146.026 E0.03769
G1 X163.365 Y145.649 F10800.000
G1 F1200.000
G1 X163.227 Y145.397 E0.00900
G1 X69.398 Y145.397 E2.94197
G1 X69.254 Y145.649 E0.00910
G1 X69.038 Y146.026 F10800.000
G1 F1200.000
G1 X67.981 Y147.059 E0.04633
G1 X66.895 Y147.608 E0.03816
G1 X65.916 Y147.798 E0.03125
G1 X60.587 Y147.728 E0.16712
G1 X59.718 Y147.446 E0.02863
G1 X58.935 Y146.981 E0.02855
G1 X58.175 Y146.258 E0.03290
G1 X57.593 Y145.397 E0.03259
G1 X57.176 Y143.945 E0.04737
G1 X57.205 Y135.973 E0.24995
G1 X57.537 Y134.842 E0.03695
G1 X57.972 Y134.111 E0.02667
G1 X58.709 Y133.328 E0.03372
G1 X59.149 Y133.038 E0.01652
G1 X59.541 Y132.778 F10800.000
G1 F1200.000
G1 X59.644 Y132.710 E0.00387
G1 X60.896 Y132.340 E0.04094
G1 X63.691 Y132.331 E0.08762
G1 X63.509 Y131.438 E0.02858
G1 X63.502 Y128.516 E0.09161
G1 X63.063 Y128.048 E0.02012
G1 X62.676 Y127.382 E0.02414
G1 X62.317 Y126.096 E0.04187
G1 X62.310 Y103.425 E0.71082
G1 X61.953 Y103.180 E0.01359
G1 X61.261 Y102.449 E0.03157
G1 X60.910 Y101.972 F10800.000
G1 F1200.000
G1 X60.594 Y101.383 E0.02096
G1 X60.310 Y100.241 E0.03689
G1 X60.310 Y97.345 E0.09078
G1 X60.553 Y96.229 E0.03581
G1 X61.238 Y95.028 E0.04334
G1 X61.307 Y94.962 E0.00301
G1 X61.675 Y95.132 F10800.000
G1 F1200.000
G1 X62.324 Y94.514 E0.02808
G1 X63.270 Y94.006 E0.03368
G1 X64.247 Y93.795 E0.03134
G1 X169.903 Y93.799 E3.31279
M73 Q0 S545
M73 P0 R538
G1 X170.817 Y94.004 E0.02937
G1 X171.482 Y94.350 E0.02350
G1 X171.872 Y94.627 F10800.000
G1 F1200.000
G1 X172.566 Y95.273 E0.02973
G1 X173.168 Y96.310 E0.03759
G1 X173.406 Y97.355 E0.03360
G1 X173.406 Y100.162 E0.08800
G1 X173.207 Y101.101 E0.03010
G1 X172.723 Y102.025 E0.03269
G1 X172.220 Y102.552 E0.02286
G1 X171.858 Y102.921 F10800.000
G1 F1200.000
G1 X171.406 Y103.190 E0.01652
G1 X171.404 Y125.951 E0.71365
G1 X171.311 Y126.578 E0.01985
G1 X170.685 Y127.881 E0.04533
G1 X169.980 Y128.622 E0.03206
G1 X169.130 Y129.176 E0.03182
G1 X168.111 Y129.485 E0.03341
G1 X164.909 Y129.504 E0.10038
G1 X164.865 Y131.842 E0.07332
G1 X164.561 Y132.705 E0.02869
G1 X171.642 Y132.713 E0.22202
G1 X172.403 Y132.880 E0.02440
G1 X173.156 Y133.236 E0.02615
G1 X173.548 Y133.570 F10800.000
G1 F1200.000
G1 X174.210 Y134.164 E0.02789
G1 X174.713 Y134.931 E0.02874
G1 X175.043 Y135.999 E0.03506
G1 X175.060 Y144.016 E0.25137
G1 X174.800 Y144.992 E0.03166
G1 X174.316 Y145.825 E0.03021
G1 X173.652 Y146.521 E0.03018
G1 X172.936 Y147.012 E0.02722
G1 X171.595 Y147.420 E0.04395
G1 X166.439 Y147.390 E0.16167
G1 X165.470 Y147.100 E0.03171
G1 X164.652 Y146.589 E0.03023
G1 X164.119 Y146.026 E0.02430
G1 X163.788 Y145.649 F10800.000
G1 F1200.000
G1 X163.457 Y145.020 E0.02230
G1 X69.174 Y145.020 E2.95617
G1 X68.826 Y145.649 E0.02255
G1 X68.498 Y146.026 F10800.000
G1 F1200.000
G1 X67.738 Y146.769 E0.03332
G1 X66.796 Y147.243 E0.03307
G1 X65.901 Y147.421 E0.02861
G1 X60.622 Y147.351 E0.16554
G1 X59.858 Y147.095 E0.02527
G1 X59.180 Y146.693 E0.02472
G1 X58.450 Y146.000 E0.03157
G1 X57.923 Y145.212 E0.02970
G1 X57.553 Y143.920 E0.04215
G1 X57.582 Y136.001 E0.24827
G1 X57.874 Y135.013 E0.03231
G1 X58.261 Y134.354 E0.02397
G1 X58.969 Y133.602 E0.03237
G1 X59.122 Y133.500 E0.00577
G1 X59.515 Y133.239 F10800.000
G1 F1200.000
G1 X59.780 Y133.062 E0.00999
G1 X60.925 Y132.717 E0.03750
G1 X64.290 Y132.706 E0.10550
G1 X64.054 Y132.220 E0.01696
G1 X63.886 Y131.417 E0.02570
G1 X63.879 Y128.364 E0.09573
G1 X63.378 Y127.838 E0.02277
G1 X63.014 Y127.213 E0.02267
G1 X62.694 Y126.070 E0.03722
G1 X62.687 Y103.223 E0.71637
G1 X62.210 Y102.903 E0.01800
G1 X61.362 Y102.017 E0.03847
G1 X61.292 Y101.889 E0.00456
G1 X60.951 Y101.255 F10800.000
G1 F1200.000
G1 X60.687 Y100.217 E0.03359
G1 X60.687 Y97.365 E0.08942
G1 X60.896 Y96.388 E0.03131
G1 X61.264 Y95.735 E0.02350
G1 X61.636 Y95.831 F10800.000
G1 F1200.000
G1 X61.801 Y95.533 E0.01071
G1 X62.525 Y94.834 E0.03155
G1 X63.424 Y94.351 E0.03200
G1 X64.266 Y94.172 E0.02698
G1 X169.881 Y94.176 E3.31149
G1 X170.708 Y94.366 E0.02658
G1 X171.502 Y94.789 E0.02822
G1 X171.897 Y95.160 F10800.000
G1 F1200.000
G1 X172.286 Y95.528 E0.01679
G1 X172.826 Y96.472 E0.03411
G1 X173.029 Y97.376 E0.02904
G1 X173.029 Y100.141 E0.08672
G1 X172.844 Y100.996 E0.02742
G1 X172.432 Y101.784 E0.02786
G1 X172.198 Y102.029 E0.01066
G1 X171.836 Y102.408 F10800.000
G1 F1200.000
G1 X171.629 Y102.625 E0.00942
G1 X171.029 Y102.970 E0.02170
G1 X171.029 Y125.914 E0.71941
G1 X170.957 Y126.445 E0.01677
G1 X170.391 Y127.643 E0.04157
G1 X169.723 Y128.345 E0.03037
G1 X168.949 Y128.845 E0.02889
G1 X168.081 Y129.108 E0.02842
G1 X164.539 Y129.129 E0.11106
G1 X164.489 Y131.802 E0.08381
G1 X164.206 Y132.568 E0.02563
G1 X163.875 Y133.081 E0.01913
G1 X171.621 Y133.090 E0.24286
G1 X172.300 Y133.243 E0.02182
G1 X172.969 Y133.557 E0.02318
G1 X173.178 Y133.744 E0.00880
G1 X173.571 Y134.097 F10800.000
G1 F1200.000
G1 X173.939 Y134.427 E0.01552
G1 X174.382 Y135.113 E0.02559
G1 X174.666 Y136.028 E0.03005
G1 X174.689 Y143.943 E0.24817
G1 X174.443 Y144.869 E0.03005
G1 X174.004 Y145.613 E0.02709
G1 X173.393 Y146.246 E0.02756
G1 X172.795 Y146.661 E0.02282
G1 X171.567 Y147.043 E0.04034
G1 X166.518 Y147.021 E0.15829
G1 X165.647 Y146.766 E0.02846
G1 X164.873 Y146.282 E0.02862
G1 X164.633 Y146.026 E0.01101
G1 X164.279 Y145.649 F10800.000
G1 F1200.000
G1 X164.115 Y145.474 E0.00753
G1 X163.688 Y144.643 E0.02930
G1 X68.947 Y144.643 E2.97054
G1 X68.472 Y145.525 E0.03142
G1 X68.345 Y145.649 E0.00557
G1 X67.959 Y146.026 F10800.000
G1 F1200.000
G1 X67.496 Y146.478 E0.02029
G1 X66.696 Y146.878 E0.02803
G1 X65.886 Y147.043 E0.02594
G1 X60.658 Y146.975 E0.16391
G1 X60.000 Y146.746 E0.02185
G1 X59.424 Y146.405 E0.02100
G1 X58.725 Y145.741 E0.03021
G1 X58.254 Y145.029 E0.02679
G1 X57.930 Y143.894 E0.03698
G1 X57.959 Y136.030 E0.24659
G1 X58.212 Y135.182 E0.02773
G1 X58.551 Y134.596 E0.02124
G1 X59.093 Y134.021 E0.02477
G1 X59.489 Y133.702 F10800.000
G1 F1200.000
G1 X59.918 Y133.414 E0.01622
G1 X60.955 Y133.094 E0.03402
G1 X64.917 Y133.081 E0.12423
G1 X64.417 Y132.113 E0.03417
G1 X64.263 Y131.396 E0.02300
G1 X64.255 Y128.210 E0.09990
G1 X63.692 Y127.628 E0.02540
G1 X63.352 Y127.044 E0.02118
G1 X63.071 Y126.044 E0.03256
G1 X63.064 Y103.018 E0.72197
G1 X62.466 Y102.625 E0.02245
G1 X61.679 Y101.812 E0.03548
G1 X61.332 Y101.184 E0.02248
G1 F8640.000
G1 X61.679 Y101.812 E-0.16557
G1 X62.466 Y102.625 E-0.26130
G1 X63.064 Y103.018 E-0.16536
G1 X63.065 Y103.745 E-0.16778
G1 E-0.04000 F2100.00000
G1 Z0.800 F10800.000
G1 X61.064 Y99.250
G1 Z0.200
G1 E0.80000 F2100.00000
G1 F1200.000
G1 X61.064 Y97.384 E0.05851
G1 X61.209 Y96.691 E0.02221
G1 X61.587 Y96.696 F10800.000
G1 F1200.000
G1 X62.084 Y95.784 E0.03260
G1 X62.768 Y95.124 E0.02977
G1 X63.576 Y94.697 E0.02867
G1 X64.285 Y94.549 E0.02271
G1 X169.859 Y94.553 E3.31019
G1 X170.596 Y94.727 E0.02375
G1 X171.291 Y95.099 E0.02473
G1 X171.527 Y95.324 E0.01020
G1 X171.921 Y95.700 F10800.000
G1 F1200.000
G1 X172.005 Y95.780 E0.00363
G1 X172.484 Y96.631 E0.03062
G1 X172.652 Y97.396 E0.02454
G1 X172.652 Y100.120 E0.08543
G1 X172.482 Y100.890 E0.02472
G1 X172.174 Y101.479 E0.02084
G1 X171.814 Y101.885 F10800.000
G1 F1200.000
G1 X171.377 Y102.344 E0.01986
G1 X170.652 Y102.746 E0.02600
G1 X170.652 Y125.901 E0.72600
G1 X170.587 Y126.364 E0.01466
G1 X170.097 Y127.406 E0.03609
G1 X169.465 Y128.069 E0.02873
G1 X168.811 Y128.493 E0.02444
G1 X168.050 Y128.731 E0.02499
G1 X164.169 Y128.754 E0.12168
G1 X164.112 Y131.760 E0.09428
G1 X163.862 Y132.411 E0.02186
G1 X163.522 Y132.921 E0.01922
G1 X162.987 Y133.458 E0.02378
G1 X171.560 Y133.463 E0.26881
G1 X172.163 Y133.595 E0.01936
G1 X172.740 Y133.857 E0.01985
G1 X173.201 Y134.271 E0.01944
G1 X173.593 Y134.624 F10800.000
G1 F1200.000
G1 X173.667 Y134.690 E0.00312
G1 X174.050 Y135.294 E0.02241
G1 X174.289 Y136.058 E0.02512
G1 X174.318 Y143.870 E0.24495
G1 X174.085 Y144.746 E0.02841
G1 X173.693 Y145.399 E0.02390
G1 X173.135 Y145.970 E0.02502
G1 X172.652 Y146.311 E0.01853
G1 X171.538 Y146.665 E0.03667
G1 X166.598 Y146.651 E0.15487
G1 X165.779 Y146.412 E0.02676
G1 X165.173 Y146.026 E0.02254
G1 X164.792 Y145.649 F10800.000
G1 F1200.000
G1 X164.411 Y145.238 E0.01757
G1 X164.052 Y144.525 E0.02502
G1 X163.983 Y144.265 E0.00841
G1 X68.646 Y144.265 E2.98924
G1 X68.552 Y144.582 E0.01034
G1 X68.186 Y145.276 E0.02461
G1 X67.805 Y145.649 E0.01671
G1 X67.419 Y146.026 F10800.000
G1 F1200.000
G1 X67.254 Y146.188 E0.00726
G1 X66.596 Y146.514 E0.02303
G1 X65.869 Y146.666 E0.02326
G1 X60.696 Y146.598 E0.16221
G1 X60.146 Y146.398 E0.01835
G1 X59.668 Y146.116 E0.01741
G1 X59.001 Y145.483 E0.02883
G1 X58.585 Y144.847 E0.02384
G1 X58.307 Y143.869 E0.03186
G1 X58.336 Y136.059 E0.24489
G1 X58.550 Y135.350 E0.02322
G1 X58.841 Y134.838 E0.01848
G1 X59.060 Y134.606 E0.00998
G1 X59.462 Y134.180 F10800.000
G1 F1200.000
G1 X60.059 Y133.765 E0.02280
G1 X60.986 Y133.471 E0.03048
G1 X65.812 Y133.455 E0.15131
G1 X65.208 Y132.818 E0.02753
G1 X64.780 Y132.008 E0.02872
G1 X64.636 Y131.337 E0.02153
G1 X64.632 Y128.055 E0.10291
G1 X64.005 Y127.417 E0.02803
G1 X63.689 Y126.875 E0.01967
G1 X63.448 Y126.018 E0.02791
G1 X63.441 Y102.748 E0.72963
G1 X63.188 Y102.648 E0.00855
G1 X62.720 Y102.345 E0.01747
G1 X61.995 Y101.604 E0.03251
G1 X61.670 Y101.026 E0.02079
G1 X61.441 Y100.167 E0.02787
G1 X61.441 Y99.261 E0.02842
