; generated by PrusaSlicer 2.2.0+win64 on 2021-01-08 at 18:08:09 UTC

; 

; external perimeters extrusion width = 0.45mm
; perimeters extrusion width = 0.45mm
; infill extrusion width = 0.45mm
; solid infill extrusion width = 0.45mm
; top infill extrusion width = 0.40mm
; first layer extrusion width = 0.42mm

M73 P0 R249
M73 Q0 S252
M201 X1000 Y1000 Z200 E5000 ; sets maximum accelerations, mm/sec^2
M203 X200 Y200 Z12 E120 ; sets maximum feedrates, mm/sec
M204 P1250 R1250 T1250 ; sets acceleration (P, T) and retract acceleration (R), mm/sec^2
M205 X8.00 Y8.00 Z0.40 E4.50 ; sets the jerk limits, mm/sec
M205 S0 T0 ; sets the minimum extruding and travel feed rate, mm/sec
M107
M862.3 P "MK3S" ; printer model check
M862.1 P0.4 ; nozzle diameter check
M115 U3.9.1 ; tell printer latest fw version
G90 ; use absolute coordinates
M83 ; extruder relative mode
M104 S215 ; set extruder temp
M140 S60 ; set bed temp
M190 S60 ; wait for bed temp
M109 S215 ; wait for extruder temp
G28 W ; home all without mesh bed level
G80 ; mesh bed leveling
G1 Y-3.0 F1000.0 ; go outside print area
G92 E0.0
G1 X60.0 E9.0 F1000.0 ; intro line
M73 Q0 S252
M73 P0 R249
G1 X100.0 E12.5 F1000.0 ; intro line
G92 E0.0
M221 S95

; Don't change E values below. Excessive value can damage the printer.

M907 E538 ; set extruder motor current
G21 ; set units to millimeters
G90 ; use absolute coordinates
M83 ; use relative distances for extrusion
M900 K0.05 ; Filament gcode LA 1.5
M900 K30 ; Filament gcode LA 1.0
;BEFORE_LAYER_CHANGE
G92 E0.0
;0.2


G1 E-0.80000 F2100.00000
G1 Z0.600 F10800.000
;AFTER_LAYER_CHANGE
;0.2
G1 X62.336 Y108.112
G1 Z0.200
G1 E0.80000 F2100.00000
M204 S1000
G1 F1200.000
G1 X63.231 Y107.264 E0.03867
G1 X63.977 Y106.763 E0.02818
G1 X125.501 Y71.514 E2.22320
G1 X126.701 Y71.136 E0.03945
G1 X127.946 Y71.002 E0.03925
G1 X179.811 Y71.001 E1.62620
G1 X180.989 Y71.112 E0.03711
G1 X182.121 Y71.437 E0.03692
G1 X183.174 Y71.964 E0.03692
G1 X184.117 Y72.680 E0.03711
G1 X184.911 Y73.558 E0.03711
G1 X185.526 Y74.562 E0.03692
G1 X185.948 Y75.668 E0.03711
G1 X186.158 Y76.833 E0.03711
G1 X186.174 Y79.690 E0.08960
G1 X184.173 Y117.516 E1.18764
G1 X183.920 Y118.988 E0.04684
G1 X183.597 Y119.845 E0.02873
G1 X183.152 Y120.653 E0.02893
G1 X154.205 Y164.740 E1.65364
G1 X153.643 Y165.456 E0.02854
G1 X152.985 Y166.084 E0.02854
G1 X152.238 Y166.616 E0.02873
G1 X151.429 Y167.032 E0.02854
G1 X150.235 Y167.408 E0.03925
G1 X148.990 Y167.544 E0.03925
G1 X101.104 Y167.545 E1.50143
G1 X99.640 Y167.370 E0.04626
G1 X98.254 Y166.863 E0.04626
G1 X97.133 Y166.142 E0.04178
G1 X96.182 Y165.200 E0.04198
G1 X62.174 Y123.081 E1.69736
G1 X61.679 Y122.369 E0.02717
G1 X61.286 Y121.597 E0.02717
G1 X60.932 Y120.507 E0.03594
G1 X60.780 Y119.377 E0.03575
G1 X60.774 Y112.250 E0.22344
G1 X60.832 Y111.436 E0.02561
G1 X61.113 Y110.241 E0.03848
G1 X61.621 Y109.117 E0.03867
G1 X62.302 Y108.161 E0.03679
G1 F8640.000
G1 X63.231 Y107.264 E-0.29839
G1 X63.977 Y106.763 E-0.20751
G1 X64.932 Y106.216 E-0.25410
G1 E-0.04000 F2100.00000
G1 Z0.800 F10800.000
G1 X182.518 Y83.244
G1 Z0.200
G1 E0.80000 F2100.00000
G1 F1200.000
G1 X182.518 Y117.688 E1.07997
G1 X182.216 Y118.927 E0.03997
G1 X181.583 Y120.038 E0.04010
G1 X180.609 Y121.000 E0.04292
G1 X179.552 Y121.590 E0.03796
G1 X178.314 Y121.892 E0.03993
G1 X153.637 Y121.892 E0.77376
G1 X153.637 Y161.677 E1.24744
G1 X153.337 Y162.905 E0.03961
G1 X152.775 Y163.933 E0.03674
G1 X151.877 Y164.865 E0.04059
G1 X150.778 Y165.537 E0.04039
G1 X149.441 Y165.881 E0.04328
G1 X100.605 Y165.881 E1.53124
G1 X99.005 Y165.420 E0.05220
G1 X98.214 Y164.904 E0.02961
G1 X97.331 Y164.010 E0.03939
G1 X96.815 Y163.163 E0.03111
G1 X96.426 Y161.800 E0.04443
G1 X96.414 Y159.047 E0.08631
G1 X96.241 Y158.927 E0.00660
G1 X95.141 Y157.747 E0.05061
G1 X94.634 Y156.717 E0.03598
G1 X94.408 Y155.588 E0.03609
G1 X94.526 Y149.952 E0.17676
G1 X94.823 Y149.155 E0.02668
G1 X95.246 Y148.437 E0.02612
G1 X96.168 Y147.470 E0.04191
G1 X96.410 Y147.297 E0.00931
G1 X96.414 Y121.407 E0.81174
G1 X75.257 Y121.407 E0.66337
G1 X74.960 Y121.909 E0.01828
G1 X73.720 Y123.083 E0.05354
G1 X72.682 Y123.589 E0.03620
G1 X71.568 Y123.809 E0.03562
G1 X65.923 Y123.688 E0.17704
G1 X64.998 Y123.326 E0.03115
G1 X64.220 Y122.814 E0.02920
G1 X63.363 Y121.935 E0.03848
G1 X62.766 Y120.914 E0.03708
G1 X62.437 Y119.592 E0.04272
G1 X62.524 Y111.217 E0.26260
G1 X62.794 Y110.407 E0.02677
G1 X63.210 Y109.653 E0.02702
G1 X64.088 Y108.687 E0.04092
G1 X65.122 Y108.003 E0.03888
G1 X66.360 Y107.619 E0.04063
G1 X124.392 Y107.600 E1.81956
G1 X125.291 Y107.804 E0.02891
G1 X125.291 Y83.253 E0.76980
G1 X124.242 Y82.260 E0.04530
G1 X123.509 Y80.903 E0.04834
G1 X123.290 Y79.784 E0.03575
G1 X123.331 Y76.588 E0.10023
G1 X123.621 Y75.560 E0.03349
G1 X124.163 Y74.600 E0.03458
G1 X125.076 Y73.658 E0.04111
G1 X126.191 Y72.992 E0.04073
G1 X127.496 Y72.665 E0.04216
G1 X180.304 Y72.669 E1.65576
G1 X181.388 Y72.904 E0.03479
G1 X182.443 Y73.437 E0.03706
G1 X183.479 Y74.384 E0.04401
G1 X184.207 Y75.605 E0.04457
G1 X184.518 Y76.937 E0.04290
G1 X184.518 Y79.826 E0.09056
G1 X184.293 Y80.932 E0.03539
G1 X183.664 Y82.131 E0.04247
G1 X182.748 Y83.091 E0.04157
G1 X182.568 Y83.211 E0.00679
G1 X182.141 Y83.031 F10800.000
G1 F1200.000
G1 X182.141 Y117.665 E1.08591
G1 X181.857 Y118.809 E0.03697
G1 X181.269 Y119.826 E0.03682
G1 X180.363 Y120.713 E0.03975
G1 X179.436 Y121.230 E0.03330
G1 X178.291 Y121.515 E0.03699
G1 X153.260 Y121.515 E0.78485
G1 X153.260 Y161.654 E1.25853
G1 X152.977 Y162.790 E0.03670
G1 X152.485 Y163.691 E0.03219
G1 X151.657 Y164.558 E0.03760
G1 X150.654 Y165.180 E0.03700
G1 X149.417 Y165.504 E0.04011
G1 X100.631 Y165.504 E1.52964
G1 X99.186 Y165.088 E0.04716
G1 X98.467 Y164.625 E0.02680
G1 X97.616 Y163.762 E0.03801
G1 X97.151 Y162.990 E0.02824
G1 X96.803 Y161.772 E0.03970
G1 X96.790 Y158.832 E0.09219
G1 X96.496 Y158.648 E0.01090
G1 X95.465 Y157.553 E0.04714
G1 X94.998 Y156.616 E0.03281
G1 X94.786 Y155.574 E0.03336
G1 X94.890 Y150.052 E0.17316
G1 X95.156 Y149.331 E0.02409
G1 X95.559 Y148.648 E0.02488
G1 X96.425 Y147.746 E0.03920
G1 X96.787 Y147.497 E0.01376
G1 X96.791 Y121.030 E0.82984
G1 X75.036 Y121.030 E0.68213
G1 X74.678 Y121.657 E0.02263
G1 X73.527 Y122.758 E0.04996
G1 X72.583 Y123.224 E0.03300
G1 X71.554 Y123.431 E0.03291
G1 X66.028 Y123.325 E0.17331
G1 X65.187 Y122.998 E0.02829
G1 X64.474 Y122.535 E0.02667
G1 X63.677 Y121.724 E0.03564
G1 X63.106 Y120.747 E0.03548
G1 X62.814 Y119.572 E0.03797
G1 X62.891 Y111.308 E0.25911
G1 X63.146 Y110.543 E0.02528
G1 X63.528 Y109.856 E0.02466
G1 X64.350 Y108.960 E0.03811
G1 X65.305 Y108.333 E0.03583
G1 X66.442 Y107.988 E0.03726
G1 X124.370 Y107.977 E1.81628
M73 Q0 S251
G1 X125.220 Y108.177 E0.02738
G1 X125.668 Y108.379 E0.01543
G1 X125.668 Y83.088 E0.79298
M73 P0 R248
G1 X124.558 Y82.051 E0.04764
G1 X123.873 Y80.800 E0.04471
G1 X123.667 Y79.769 E0.03298
G1 X123.708 Y76.619 E0.09879
G1 X123.977 Y75.686 E0.03044
G1 X124.451 Y74.845 E0.03028
G1 X125.329 Y73.939 E0.03954
G1 X126.359 Y73.331 E0.03751
G1 X127.519 Y73.042 E0.03747
G1 X180.283 Y73.046 E1.65439
G1 X181.283 Y73.266 E0.03210
G1 X182.248 Y73.760 E0.03399
G1 X183.203 Y74.641 E0.04073
G1 X183.867 Y75.771 E0.04108
G1 X184.141 Y76.959 E0.03823
G1 X184.141 Y79.806 E0.08928
G1 X183.929 Y80.829 E0.03275
G1 X183.373 Y81.890 E0.03757
G1 X182.494 Y82.811 E0.03991
G1 X182.192 Y83.000 E0.01116
G1 X181.764 Y82.815 F10800.000
G1 F1200.000
G1 X181.764 Y117.641 E1.09196
G1 X181.498 Y118.691 E0.03396
G1 X180.987 Y119.575 E0.03200
G1 X180.118 Y120.426 E0.03815
G1 X179.319 Y120.871 E0.02867
G1 X178.267 Y121.138 E0.03403
G1 X152.882 Y121.138 E0.79592
G1 X152.882 Y161.630 E1.26960
G1 X152.618 Y162.674 E0.03377
G1 X152.194 Y163.450 E0.02772
G1 X151.435 Y164.252 E0.03464
G1 X150.528 Y164.823 E0.03360
G1 X149.391 Y165.127 E0.03689
G1 X100.657 Y165.127 E1.52802
G1 X99.365 Y164.755 E0.04217
G1 X98.720 Y164.344 E0.02397
G1 X97.901 Y163.514 E0.03660
G1 X97.488 Y162.819 E0.02534
G1 X97.179 Y161.745 E0.03503
G1 X97.167 Y158.613 E0.09820
G1 X96.749 Y158.367 E0.01521
G1 X95.789 Y157.357 E0.04368
G1 X95.362 Y156.514 E0.02962
G1 X95.163 Y155.559 E0.03060
G1 X95.255 Y150.153 E0.16953
G1 X95.504 Y149.478 E0.02254
G1 X95.872 Y148.860 E0.02256
G1 X96.682 Y148.024 E0.03650
G1 X97.164 Y147.699 E0.01822
G1 X97.169 Y120.653 E0.84801
G1 X74.812 Y120.653 E0.70097
G1 X74.395 Y121.407 E0.02700
G1 X73.331 Y122.435 E0.04638
G1 X72.482 Y122.860 E0.02978
G1 X71.539 Y123.054 E0.03018
G1 X66.131 Y122.961 E0.16959
G1 X65.374 Y122.670 E0.02544
G1 X64.726 Y122.254 E0.02414
G1 X63.988 Y121.511 E0.03282
G1 X63.464 Y120.627 E0.03222
G1 X63.191 Y119.550 E0.03484
G1 X63.259 Y111.398 E0.25562
G1 X63.484 Y110.711 E0.02267
G1 X63.847 Y110.059 E0.02337
G1 X64.610 Y109.234 E0.03526
G1 X65.487 Y108.665 E0.03277
G1 X66.523 Y108.357 E0.03389
G1 X124.347 Y108.354 E1.81303
G1 X125.111 Y108.538 E0.02462
G1 X126.045 Y108.981 E0.03244
G1 X126.045 Y82.846 E0.81947
G1 X125.814 Y82.712 E0.00839
G1 X124.838 Y81.797 E0.04195
G1 X124.237 Y80.697 E0.03929
G1 X124.045 Y79.753 E0.03020
G1 X124.085 Y76.650 E0.09731
G1 X124.332 Y75.813 E0.02736
G1 X124.740 Y75.088 E0.02609
G1 X125.545 Y74.249 E0.03646
G1 X126.479 Y73.689 E0.03415
G1 X127.543 Y73.419 E0.03439
G1 X180.262 Y73.423 E1.65297
G1 X181.175 Y73.629 E0.02937
G1 X182.050 Y74.083 E0.03091
G1 X182.924 Y74.897 E0.03746
G1 X183.526 Y75.934 E0.03759
G1 X183.764 Y76.979 E0.03360
G1 X183.764 Y79.786 E0.08800
G1 X183.566 Y80.725 E0.03010
G1 X183.082 Y81.649 E0.03269
G1 X182.240 Y82.531 E0.03822
G1 X181.816 Y82.784 E0.01549
G1 X181.387 Y82.594 F10800.000
G1 F1200.000
G1 X181.387 Y117.616 E1.09810
G1 X181.139 Y118.571 E0.03092
G1 X180.705 Y119.323 E0.02723
G1 X179.872 Y120.138 E0.03655
G1 X179.201 Y120.512 E0.02409
G1 X178.243 Y120.761 E0.03103
G1 X152.505 Y120.761 E0.80697
G1 X152.505 Y161.606 E1.28066
G1 X152.259 Y162.556 E0.03080
G1 X151.902 Y163.210 E0.02334
G1 X151.211 Y163.948 E0.03171
G1 X150.400 Y164.468 E0.03019
G1 X149.366 Y164.750 E0.03362
G1 X100.684 Y164.750 E1.52639
G1 X99.543 Y164.422 E0.03723
G1 X98.973 Y164.064 E0.02110
G1 X98.186 Y163.266 E0.03514
G1 X97.825 Y162.649 E0.02240
G1 X97.556 Y161.717 E0.03042
G1 X97.543 Y158.389 E0.10434
G1 X97.000 Y158.084 E0.01954
G1 X96.111 Y157.159 E0.04021
G1 X95.725 Y156.410 E0.02642
G1 X95.540 Y155.543 E0.02781
G1 X95.620 Y150.253 E0.16587
G1 X95.851 Y149.626 E0.02096
G1 X96.183 Y149.074 E0.02020
G1 X96.936 Y148.302 E0.03380
G1 X97.541 Y147.903 E0.02271
G1 X97.541 Y120.927 E0.84582
G1 X97.710 Y120.276 E0.02108
G1 X74.586 Y120.276 E0.72505
G1 X74.110 Y121.158 E0.03142
G1 X73.134 Y122.112 E0.04280
G1 X72.379 Y122.497 E0.02655
G1 X71.523 Y122.677 E0.02741
G1 X66.233 Y122.596 E0.16589
G1 X65.559 Y122.341 E0.02261
G1 X64.977 Y121.972 E0.02161
G1 X64.299 Y121.295 E0.03003
G1 X63.822 Y120.505 E0.02895
G1 X63.569 Y119.527 E0.03166
G1 X63.626 Y111.487 E0.25210
G1 X63.837 Y110.846 E0.02116
G1 X64.164 Y110.265 E0.02092
G1 X64.869 Y109.509 E0.03241
G1 X65.667 Y108.997 E0.02971
G1 X66.602 Y108.727 E0.03052
G1 X124.323 Y108.732 E1.80983
G1 X125.000 Y108.899 E0.02186
G1 X125.616 Y109.195 E0.02144
G1 X126.423 Y109.899 E0.03356
G1 X126.423 Y82.614 E0.85553
G1 X126.051 Y82.417 E0.01319
G1 X125.118 Y81.543 E0.04010
G1 X124.600 Y80.593 E0.03390
G1 X124.422 Y79.737 E0.02741
G1 X124.461 Y76.682 E0.09579
G1 X124.686 Y75.943 E0.02423
G1 X125.030 Y75.330 E0.02203
G1 X125.763 Y74.557 E0.03340
G1 X126.602 Y74.047 E0.03079
G1 X127.567 Y73.796 E0.03126
G1 X180.240 Y73.800 E1.65152
G1 X181.066 Y73.990 E0.02658
G1 X181.851 Y74.404 E0.02782
G1 X182.645 Y75.152 E0.03419
G1 X183.185 Y76.096 E0.03411
G1 X183.387 Y77.000 E0.02904
G1 X183.387 Y79.766 E0.08672
G1 X183.202 Y80.621 E0.02742
G1 X182.791 Y81.408 E0.02786
G1 X181.987 Y82.250 E0.03649
G1 X181.439 Y82.564 E0.01981
G1 X181.010 Y82.371 F10800.000
G1 F1200.000
G1 X181.010 Y117.591 E1.10432
G1 X180.782 Y118.450 E0.02785
G1 X180.423 Y119.072 E0.02252
G1 X179.626 Y119.851 E0.03494
G1 X179.081 Y120.154 E0.01957
G1 X178.218 Y120.384 E0.02801
G1 X151.974 Y120.384 E0.82285
G1 X152.128 Y120.948 E0.01834
G1 X152.128 Y161.580 E1.27400
G1 X151.900 Y162.437 E0.02780
G1 X151.611 Y162.970 E0.01901
G1 X150.951 Y163.674 E0.03024
G1 X150.271 Y164.113 E0.02540
G1 X149.339 Y164.373 E0.03031
G1 X100.710 Y164.373 E1.52473
G1 X99.719 Y164.087 E0.03236
G1 X99.225 Y163.782 E0.01819
G1 X98.472 Y163.019 E0.03362
G1 X98.164 Y162.482 E0.01942
G1 X97.933 Y161.689 E0.02588
G1 X97.919 Y158.162 E0.11059
G1 X97.248 Y157.799 E0.02391
G1 X96.431 Y156.959 E0.03673
G1 X96.088 Y156.304 E0.02320
G1 X95.918 Y155.525 E0.02499
G1 X95.985 Y150.351 E0.16224
G1 X96.185 Y149.801 E0.01835
G1 X96.469 Y149.320 E0.01751
G1 X97.191 Y148.581 E0.03239
G1 X97.660 Y148.277 E0.01752
G1 X97.918 Y148.174 E0.00871
G1 X97.918 Y120.954 E0.85348
G1 X98.209 Y119.899 E0.03431
G1 X74.284 Y119.899 E0.75016
G1 X74.190 Y120.215 E0.01034
G1 X73.825 Y120.910 E0.02461
G1 X72.892 Y121.821 E0.04089
G1 X72.234 Y122.148 E0.02303
G1 X71.508 Y122.300 E0.02326
G1 X66.334 Y122.231 E0.16224
G1 X65.742 Y122.011 E0.01980
G1 X65.226 Y121.688 E0.01908
G1 X64.607 Y121.078 E0.02725
G1 X64.179 Y120.380 E0.02567
G1 X63.946 Y119.504 E0.02843
G1 X63.993 Y111.577 E0.24855
M73 Q0 S250
G1 X64.189 Y110.982 E0.01962
G1 X64.480 Y110.472 E0.01843
G1 X65.127 Y109.784 E0.02962
G1 X65.798 Y109.352 E0.02501
G1 X66.681 Y109.096 E0.02882
G1 X124.299 Y109.109 E1.80658
M73 P0 R247
G1 X124.887 Y109.259 E0.01903
G1 X125.427 Y109.522 E0.01882
G1 X126.243 Y110.250 E0.03431
G1 X126.535 Y110.671 E0.01606
G1 X126.800 Y110.588 E0.00869
G1 X126.800 Y82.378 E0.88453
G1 X126.285 Y82.120 E0.01805
G1 X125.434 Y81.334 E0.03632
G1 X124.945 Y80.438 E0.03202
G1 X124.799 Y79.722 E0.02289
G1 X124.838 Y76.716 E0.09428
G1 X125.040 Y76.075 E0.02106
G1 X125.320 Y75.572 E0.01805
G1 X126.020 Y74.835 E0.03187
G1 X126.726 Y74.404 E0.02594
G1 X127.592 Y74.173 E0.02810
G1 X180.217 Y74.177 E1.65003
G1 X180.954 Y74.351 E0.02374
G1 X181.650 Y74.723 E0.02473
G1 X182.363 Y75.404 E0.03093
G1 X182.842 Y76.256 E0.03062
G1 X183.010 Y77.020 E0.02454
G1 X183.010 Y79.745 E0.08543
G1 X182.840 Y80.515 E0.02472
G1 X182.499 Y81.167 E0.02307
G1 X181.735 Y81.968 E0.03472
G1 X181.062 Y82.341 E0.02412
G1 X180.633 Y82.144 F10800.000
G1 F1200.000
G1 X180.633 Y117.565 E1.11062
G1 X180.425 Y118.326 E0.02474
G1 X180.139 Y118.822 E0.01793
G1 X179.418 Y119.536 E0.03183
G1 X178.957 Y119.797 E0.01660
G1 X178.192 Y120.007 E0.02489
G1 X151.463 Y120.007 E0.83805
G1 X151.751 Y120.977 E0.03175
G1 X151.751 Y161.555 E1.27227
G1 X151.543 Y162.317 E0.02477
G1 X151.319 Y162.730 E0.01474
G1 X150.692 Y163.399 E0.02877
G1 X150.139 Y163.758 E0.02067
G1 X149.312 Y163.996 E0.02696
G1 X100.737 Y163.996 E1.52305
G1 X99.892 Y163.752 E0.02758
G1 X99.477 Y163.500 E0.01523
G1 X98.759 Y162.773 E0.03204
G1 X98.503 Y162.316 E0.01640
G1 X98.310 Y161.661 E0.02144
G1 X98.295 Y157.931 E0.11692
G1 X97.497 Y157.514 E0.02825
G1 X96.722 Y156.717 E0.03483
G1 X96.435 Y156.155 E0.01979
G1 X96.295 Y155.508 E0.02076
G1 X96.351 Y150.448 E0.15866
G1 X96.521 Y149.974 E0.01580
G1 X96.757 Y149.565 E0.01481
G1 X97.415 Y148.886 E0.02964
G1 X97.845 Y148.606 E0.01607
G1 X98.295 Y148.443 E0.01502
G1 X98.295 Y120.981 E0.86106
G1 X98.530 Y120.158 E0.02684
G1 X98.927 Y119.522 E0.02350
G1 X73.994 Y119.522 E0.78176
G1 X73.845 Y120.063 E0.01761
G1 X73.538 Y120.663 E0.02109
G1 X72.651 Y121.529 E0.03889
G1 X72.093 Y121.798 E0.01943
G1 X71.492 Y121.922 E0.01925
G1 X66.432 Y121.866 E0.15864
G1 X65.922 Y121.680 E0.01702
G1 X65.474 Y121.403 E0.01654
G1 X64.914 Y120.857 E0.02451
G1 X64.535 Y120.252 E0.02238
G1 X64.323 Y119.479 E0.02514
G1 X64.361 Y111.666 E0.24497
G1 X64.541 Y111.119 E0.01806
G1 X64.794 Y110.681 E0.01588
G1 X65.385 Y110.060 E0.02686
G1 X65.930 Y109.706 E0.02037
G1 X66.760 Y109.466 E0.02710
G1 X124.274 Y109.486 E1.80332
G1 X124.742 Y109.608 E0.01517
G1 X125.197 Y109.822 E0.01575
G1 X125.973 Y110.515 E0.03263
G1 X126.319 Y111.029 E0.01939
G1 X126.541 Y111.666 E0.02116
G1 X126.569 Y118.540 E0.21553
G1 X127.443 Y118.540 E0.02739
G1 X127.177 Y117.565 E0.03167
G1 X127.177 Y82.138 E1.11080
G1 X126.516 Y81.821 E0.02298
G1 X125.749 Y81.125 E0.03246
G1 X125.290 Y80.283 E0.03008
